SamithVa/humanoid_gym/debug_logs/sim2sim_debug_20251102_102156.csv
timestep,obs_0,obs_1,obs_2,obs_3,obs_4,obs_5,obs_6,obs_7,obs_8,obs_9,obs_10,obs_11,obs_12,obs_13,obs_14,obs_15,obs_16,obs_17,obs_18,obs_19,obs_20,obs_21,obs_22,obs_23,obs_24,obs_25,obs_26,obs_27,obs_28,obs_29,obs_30,obs_31,obs_32,obs_33,obs_34,obs_35,obs_36,obs_37,obs_38,obs_39,obs_40,action_0,action_1,action_2,action_3,action_4,action_5,action_6,action_7,action_8,action_9,q_0,q_1,q_2,q_3,q_4,q_5,q_6,q_7,q_8,q_9,dq_0,dq_1,dq_2,dq_3,dq_4,dq_5,dq_6,dq_7,dq_8,dq_9,target_q_0,target_q_1,target_q_2,target_q_3,target_q_4,target_q_5,target_q_6,target_q_7,target_q_8,target_q_9,tau_0,tau_1,tau_2,tau_3,tau_4,tau_5,tau_6,tau_7,tau_8,tau_9
0,0.0,1.0,0.800000011920929,0.0,0.0,8.248602255319744e-21,1.2331266875261718e-20,-2.6272860532708114e-20,-2.336982332092638e-20,4.382686905524079e-20,1.1767789664844749e-20,1.109466417123762e-20,2.825178190390326e-20,-3.0474959047110236e-20,4.382686905524079e-20,4.124301079192258e-19,6.165633679968929e-19,-1.3136430492536256e-18,-1.168491153121622e-18,2.191343304128023e-18,5.883894929357602e-19,5.547332198709909e-19,1.4125891533563e-18,-1.5237479588178603e-18,2.191343304128023e-18,0.0,0.0,0.0,0.0,0.0,0.0,0.0,0.0,0.0,0.0,-0.008717414923012257,-0.00016094904276542366,-0.00258592888712883,2.8476812076405622e-05,-4.423024074640125e-05,0.021424883976578712,0.35334765911102295,0.3624829649925232,-0.04656047374010086,-0.2964913845062256,-1.9502081871032715,0.02447521686553955,0.6176389455795288,-0.0069869086146354675,-0.4130293130874634,-0.20853976905345917,8.248602289409917e-21,1.2331267206091661e-20,-2.6272860581335694e-20,-2.3369822633218283e-20,4.3826867925095595e-20,1.1767789673281413e-20,1.1094663939859192e-20,2.8251783174942757e-20,-3.047495916081723e-20,4.3826867925095577e-20,8.248602289409916e-18,1.2331267206091661e-17,-2.6272860581335695e-17,-2.3369822633218284e-17,4.3826867925095595e-17,1.1767789673281413e-17,1.1094663939859191e-17,2.8251783174942756e-17,-3.047495916081723e-17,4.3826867925095576e-17,0.0,0.0,0.0,0.0,0.0,0.0,0.0,0.0,0.0,0.0,-2.4910778914017946e-17,-3.7733677650640486e-17,7.93440389556338e-17,7.104426080498358e-17,-1.315244306432119e-16,-3.553872481330987e-17,-3.394967165596912e-17,-8.532038518832712e-17,9.325337503210072e-17,-1.3152443064321182e-16
10,0.0980171412229538,0.9951847195625305,0.800000011920929,0.0,0.0,2.1598280347361054e-13,5.388236786006001e-14,2.221041140717736e-13,-5.295990642556481e-12,7.669208323957122e-11,2.0851391089021093e-13,-2.9965718356108825e-14,-2.049117575923451e-13,-5.210331298355353e-12,7.549269542828085e-11,1.2076798762417074e-11,3.012770154880995e-12,1.241903715282211e-11,-2.9612762242337e-10,4.2882710715730354e-09,1.1659216127279937e-11,-1.6756075693624695e-12,-1.1457792180313842e-11,-2.9133884194010307e-10,4.221219818134614e-09,0.35334765911102295,0.3624829649925232,-0.04656047374010086,-0.2964913845062256,-1.9502081871032715,0.02447521686553955,0.6176389455795288,-0.0069869086146354675,-0.4130293130874634,-0.20853976905345917,0.004355542827397585,-0.0008832947351038456,-0.0004327416536398232,0.000316724122967571,9.541912004351616e-05,0.021951816976070404,0.3273351788520813,0.04824746027588844,0.12407137453556061,-0.06615228950977325,-1.7263725996017456,0.05758728086948395,0.6357573866844177,-0.11696742475032806,-0.2186124473810196,0.047300368547439575,2.1598279789087574e-13,5.3882367508196586e-14,2.221041178542999e-13,-5.295990524292501e-12,7.669208080639768e-11,2.0851391388968953e-13,-2.996571902732214e-14,-2.0491175786031263e-13,-5.210331299962472e-12,7.54926946160329e-11,2.415359719382565e-10,6.025540497764947e-11,2.483807443712655e-10,-5.922552509842918e-09,8.576541741738864e-08,2.3318431419925464e-10,-3.3512151389386824e-11,-2.291558391915851e-10,-5.8267766117989594e-09,8.442439988037319e-08,0.0,0.0,0.0,0.0,0.0,0.0,0.0,0.0,0.0,0.0,-7.289275717725871e-10,-1.8399915698344021e-10,-7.495843154708825e-10,1.7979497150500455e-08,-2.573729443329724e-07,-7.037232208755578e-10,1.023343973097998e-10,6.915657527319615e-10,1.7792949713394626e-08,-2.533486923357356e-07
20,0.19509032368659973,0.9807852506637573,0.800000011920929,0.0,0.0,0.0002401632518740371,1.8339500456932e-05,7.729387289145961e-05,-0.0004729621869046241,-0.0037015127018094063,0.00023741206678096205,-5.305665581545327e-06,-5.4840500524733216e-05,-0.000493688159622252,-0.0031497436575591564,0.014402586966753006,0.0015116368886083364,0.006315378937870264,-0.08209056407213211,0.6596762537956238,0.01418138574808836,-0.0005954685620963573,-0.005002298858016729,-0.0821651741862297,0.6738316416740417,0.3273351788520813,0.04824746027588844,0.12407137453556061,-0.06615228950977325,-1.7263725996017456,0.05758728086948395,0.6357573866844177,-0.11696742475032806,-0.2186124473810196,0.047300368547439575,-0.0006929782684892416,-0.025119900703430176,0.0006239869981072843,-0.0005345267709344625,-0.00033636120497249067,0.02049461007118225,0.21065615117549896,0.4485814571380615,-0.2915927469730377,0.12495792657136917,-2.2965993881225586,-0.04544687643647194,0.9505264759063721,-0.27341780066490173,-0.5004688501358032,-0.08186124265193939,0.0002401632586184126,1.8339499574804964e-05,7.729387441864442e-05,-0.00047296218965226216,-0.003701512804615231,0.00023741207142288185,-5.305665655057268e-06,-5.4840501494070795e-05,-0.000493688182674441,-0.003149743693586596,0.2880517440694159,0.0302327381702226,0.12630757422147018,-1.6418113513461752,13.19352524901521,0.28362771138083637,-0.011909371078865406,-0.10004597665815537,-1.643303433482382,13.476633146742891,0.0,0.0,0.0,0.0,0.0,0.0,0.0,0.0,0.0,0.0,-0.868958497380616,-0.0917985844851561,-0.3804686001527834,4.944352541624617,-39.57687423424101,-0.8556313755709668,0.036046453175899655,0.3012347400043475,4.959531591407612,-40.42674969653509
30,0.290284663438797,0.9569403529167175,0.800000011920929,0.0,0.0,0.0012133457930758595,-0.0005466481670737267,-0.00010010709229391068,-0.0005987434997223318,-0.03546862304210663,0.0011933763744309545,-0.0005646900972351432,-0.00022746917966287583,-0.0007047312101349235,-0.031871430575847626,0.0172863956540823,-0.0029522355180233717,0.008230657316744328,-0.07766328006982803,0.6343192458152771,0.017055464908480644,-0.005309324245899916,-0.004821959417313337,-0.0775507390499115,0.6499754190444946,0.21065615117549896,0.4485814571380615,-0.2915927469730377,0.12495792657136917,-2.2965993881225586,-0.04544687643647194,0.9505264759063721,-0.27341780066490173,-0.5004688501358032,-0.08186124265193939,-0.034825023263692856,-0.04621979966759682,0.0021123625338077545,-0.000136873873998411,-0.00023829928250052035,0.021324560046195984,-0.11266857385635376,1.0004323720932007,-0.4776865839958191,0.2379683256149292,-2.9067587852478027,-0.3317665457725525,0.8572885990142822,-0.3095535933971405,-0.9158406257629395,-0.3255217671394348,0.001213345820418368,-0.0005466481423236518,-0.00010010709301906011,-0.0005987434913483033,-0.035468623802914684,0.0011933763762826367,-0.000564690076249508,-0.00022746917880928796,-0.0007047312038650228,-0.031871429156400746,0.34572791565089134,-0.05904471109430358,0.1646131434575763,-1.5532655357512415,12.68638497179306,0.34110928677013475,-0.10618648786640107,-0.09643918698284604,-1.551014735801909,12.999508668396402,0.0,0.0,0.0,0.0,0.0,0.0,0.0,0.0,0.0,0.0,-1.0614506633610414,0.20993302182232984,-0.4918372885123477,4.683746346907657,-38.02368629157627,-1.0471953878360571,0.3524408681741737,0.2938669445247239,4.695328079637629,-38.9666545760328
40,0.3826834261417389,0.9238795042037964,0.800000011920929,0.0,0.0,0.0044353860430419445,-0.0030327849090099335,-0.0006757170776836574,-0.001179590355604887,-0.0721425861120224,0.004439957439899445,-0.003039479022845626,-0.0008001018431968987,-0.001487657893449068,-0.06487585604190826,0.03658781200647354,-0.018958088010549545,0.004355652257800102,-0.07872866094112396,0.5949505567550659,0.03680671751499176,-0.02124052867293358,-0.008351421914994717,-0.08007550239562988,0.6165436506271362,-0.11266857385635376,1.0004323720932007,-0.4776865839958191,0.2379683256149292,-2.9067587852478027,-0.3317665457725525,0.8572885990142822,-0.3095535933971405,-0.9158406257629395,-0.3255217671394348,-0.1291569322347641,-0.2029527872800827,-0.02566230110824108,-0.0007715242099948227,-0.001839146250858903,0.02154538221657276,0.009537294507026672,0.6821078062057495,-0.4824243187904358,0.3853754997253418,-3.1245388984680176,-0.2902752757072449,0.5275521278381348,-0.10987178236246109,-0.7882208824157715,-0.48192065954208374,0.004435386177479159,-0.003032784815557379,-0.0006757170675210097,-0.0011795903823205091,-0.0721425862973948,0.004439957215293953,-0.0030394790138043525,-0.0008001018685663398,-0.0014876579149451538,-0.06487585934958708,0.7317562734100302,-0.37916177665331124,0.08711304495047167,-1.5745732693197303,11.899011027650857,0.7361343318657189,-0.4248105566620812,-0.1670284450356729,-1.6015100360185808,12.330873105248621,0.0,0.0,0.0,0.0,0.0,0.0,0.0,0.0,0.0,0.0,-2.2839765437796737,1.3194524188933765,-0.24782479350099482,4.770903423252012,-35.624890496655176,-2.297202139903036,1.4568004108145045,0.5170873724783455,4.893789582952451,-36.92774345639628
50,0.4713967442512512,0.8819212913513184,0.800000011920929,0.0,0.0,0.005868482869118452,-0.009100990369915962,-0.0014992112992331386,0.00698652071878314,-0.0666147917509079,0.007276369724422693,-0.009139900095760822,-0.0016598475631326437,0.005639517679810524,-0.06982289999723434,-0.055613044649362564,-0.01252236869186163,0.00606481172144413,0.15830720961093903,0.11617101728916168,-0.03522077575325966,-0.012620341964066029,0.005760487634688616,0.11549615114927292,0.14177322387695312,0.009537294507026672,0.6821078062057495,-0.4824243187904358,0.3853754997253418,-3.1245388984680176,-0.2902752757072449,0.5275521278381348,-0.10987178236246109,-0.7882208824157715,-0.48192065954208374,-0.24229609966278076,-0.47731906175613403,-0.03718972206115723,-0.0031113645527511835,-0.004562792833894491,0.021188020706176758,-0.11621825397014618,0.8273836970329285,-0.41921722888946533,-0.01418820396065712,-3.4878928661346436,-0.38228535652160645,0.4190506339073181,-0.029508795589208603,-1.040091633796692,-1.741431713104248,0.005868482759949492,-0.009100990041713252,-0.0014992112978333381,0.006986520504279151,-0.0666147909836077,0.007276369824539847,-0.00913990043149214,-0.001659847518743897,0.0056395174900820254,-0.06982290307493201,-1.1122609235976877,-0.2504473830723338,0.12129623234409347,3.166144295506289,2.323420368024478,-0.7044154909714772,-0.25240683684729676,0.11520975070860709,2.3099230060337113,2.835464375184209,0.0,0.0,0.0,0.0,0.0,0.0,0.0,0.0,0.0,0.0,3.2194131155940733,1.2974015517197965,-0.3339044710756136,-9.777893706690033,-6.903646313089826,1.9677190764236343,1.3056145364314187,-0.3124323017509434,-7.268140067506055,-8.436570222477695
60,0.5555702447891235,0.8314695954322815,0.800000011920929,0.0,0.0,0.0031176945194602013,-0.0102674700319767,-0.0008048659074120224,0.033014386892318726,-0.04734083265066147,0.006159605458378792,-0.0103458808735013,-0.0011930710170418024,0.027673695236444473,-0.04713459312915802,0.022946013137698174,-0.004892989527434111,0.0022943674121052027,0.09892092645168304,0.10717135667800903,0.03935735300183296,-0.006356040481477976,-0.003516062628477812,0.03291745483875275,0.26074448227882385,-0.11621825397014618,0.8273836970329285,-0.41921722888946533,-0.01418820396065712,-3.4878928661346436,-0.38228535652160645,0.4190506339073181,-0.029508795589208603,-1.040091633796692,-1.741431713104248,-0.07409650087356567,-1.0803070068359375,-0.024549206718802452,-0.005108469631522894,-0.012585501186549664,0.021912528201937675,-0.18671481311321259,0.7775893211364746,-0.7622228264808655,-0.4117429852485657,-4.1854248046875,-0.6613529920578003,0.1295032501220703,-0.023949990049004555,-1.3027851581573486,-3.4626054763793945,0.003117694411162821,-0.010267469611832634,-0.0008048658924818951,0.033014385431148256,-0.04734083314587108,0.006159605639066301,-0.010345880421100054,-0.001193070967934938,0.02767369435513332,-0.047134594265507944,0.45892024596202197,-0.09785979183029435,0.045887347117290714,1.9784185730710753,2.143427091926277,0.7871470784489744,-0.12712081042129197,-0.07032125189972066,0.6583490813329456,5.214889686594136,0.0,0.0,0.0,0.0,0.0,0.0,0.0,0.0,0.0,0.0,-1.4391146261093224,0.909627552200841,-0.12156472350223425,-7.255831136459156,-6.382940442632959,-2.484633348128249,1.0021152565298792,0.23482517505786074,-3.635468905306836,-15.5975344655169
70,0.6343932747840881,0.7730104327201843,0.800000011920929,0.0,0.0,0.012577084824442863,-0.012461616657674313,-0.0006417972035706043,0.05169834569096565,-0.007152663078159094,0.01838766224682331,-0.013303609564900398,-0.0023553548380732536,0.03895128518342972,-0.03726407513022423,0.08092448860406876,-0.012740736827254295,0.0024348304141312838,-0.051327481865882874,1.4842572212219238,0.06940972805023193,-0.013445693999528885,-0.0019698317628353834,0.0926629826426506,0.0769563689827919,-0.18671481311321259,0.7775893211364746,-0.7622228264808655,-0.4117429852485657,-4.1854248046875,-0.6613529920578003,0.1295032501220703,-0.023949990049004555,-1.3027851581573486,-3.4626054763793945,-0.21825429797172546,-1.643677830696106,-0.10828673839569092,-0.005740095395594835,-0.027539702132344246,0.02042524144053459,-0.37190526723861694,0.5637450814247131,-0.5268198251724243,-0.7769640684127808,-4.561939716339111,-0.7794835567474365,0.5421526432037354,0.3517830967903137,-1.0295542478561401,-4.0500054359436035,0.012577084650757372,-0.012461616649995934,-0.0006417972158676918,0.051698344898889,-0.007152662860211521,0.01838766167451998,-0.013303609584412773,-0.0023553549051312187,0.03895128621614535,-0.03726407506304795,1.6184898009467283,-0.25481473517595715,0.04869660882122477,-1.0265496699748615,29.68514392461174,1.3881945754456528,-0.2689138818065262,-0.03939663412092263,1.8532596739702651,1.539127428855097,0.0,0.0,0.0,0.0,0.0,0.0,0.0,0.0,0.0,0.0,-5.1070110958553325,1.5121412045276275,-0.13325388214632047,1.0117152139690244,-89.04827911097502,-4.532336959827359,1.6049582204843449,0.16529700046539228,-7.896856194879517,-4.580118211502243
80,0.7071067690849304,0.7071067690849304,0.800000011920929,0.0,0.0,0.03770075738430023,-0.02107979729771614,-0.0009405224118381739,0.0661599338054657,-0.05464677885174751,0.03843975439667702,-0.021399209275841713,-0.002067380119115114,0.05773390457034111,-0.04629462584853172,0.09648516774177551,-0.05137772485613823,0.004708123859018087,0.16313250362873077,-0.12185237556695938,0.16360270977020264,-0.051431939005851746,0.003046168014407158,0.015985414385795593,-0.04269254580140114,-0.37190526723861694,0.5637450814247131,-0.5268198251724243,-0.7769640684127808,-4.561939716339111,-0.7794835567474365,0.5421526432037354,0.3517830967903137,-1.0295542478561401,-4.0500054359436035,-0.7290849685668945,-2.321286201477051,-0.220275416970253,-0.011421793140470982,-0.04846395179629326,0.018391331657767296,-0.7987589836120605,-0.08815192431211472,-0.38528215885162354,-1.3295493125915527,-4.4299163818359375,-0.7049744725227356,0.19402526319026947,0.04417317360639572,-0.9137352108955383,-4.872191905975342,0.03770075685589788,-0.021079796612499865,-0.0009405224163420551,0.06615993305681481,-0.054646779610930556,0.03843975508767673,-0.021399209818814668,-0.0020673802320567624,0.057733904570034154,-0.04629462562234221,1.9297033980164893,-1.0275544777058998,0.09416248031680532,3.2626499435333702,-2.437047530175143,3.27205417199301,-1.0286387841346611,0.060923362521606204,0.3197082878293985,-0.8538509001170884,0.0,0.0,0.0,0.0,0.0,0.0,0.0,0.0,0.0,0.0,-6.543125331167426,4.347451229867691,-0.2636769926235749,-12.434347152872704,7.36578937013636,-10.584957617732565,4.3698689415328635,-0.14142248292368337,-4.423159137690245,2.6078473259736077
90,0.7730104327201843,0.6343932747840881,0.800000011920929,0.0,0.0,0.0758277028799057,-0.0360005646944046,-0.0015349785098806024,0.08364461362361908,-0.07763652503490448,0.08865521103143692,-0.037651341408491135,-0.004297027364373207,0.047562893480062485,-0.05459082871675491,0.2659556269645691,-0.10399104654788971,-0.007496824022382498,0.043954573571681976,-0.11562003195285797,0.32657405734062195,-0.1258707195520401,-0.029476139694452286,-0.08537377417087555,-0.052710484713315964,-0.7987589836120605,-0.08815192431211472,-0.38528215885162354,-1.3295493125915527,-4.4299163818359375,-0.7049744725227356,0.19402526319026947,0.04417317360639572,-0.9137352108955383,-4.872191905975342,-1.2863199710845947,-3.6708428859710693,-0.661422848701477,-0.020244175568223,-0.07852797955274582,0.014810191467404366,-1.3257074356079102,-0.5362176895141602,-0.11243914812803268,-1.7255659103393555,-3.7350826263427734,-0.26439428329467773,0.2630312442779541,-0.3376697897911072,-0.4765129089355469,-4.952660083770752,0.07582770658839767,-0.03600056537599983,-0.0015349785466869724,0.08364461259695681,-0.07763652592526046,0.08865521470761656,-0.037651341649111714,-0.004297027339509856,0.04756289412814474,-0.05459083056400817,5.319112495439609,-2.0798209808327623,-0.14993648244488866,0.8790914920772511,-2.3124005823487312,6.531481368420111,-2.5174142748663995,-0.5895227951595445,-1.7074754303015711,-1.054209721136298,0.0,0.0,0.0,0.0,0.0,0.0,0.0,0.0,0.0,0.0,-17.473891618086782,8.399496865058277,0.4805090182684054,-5.983058980110026,7.0148382729714545,-21.367548399412666,9.811323323545901,1.8545089322688306,2.268652643216029,3.2172199939729023
100,0.8314695954322815,0.5555702447891235,0.800000011920929,0.0,0.0,0.12943613529205322,-0.0583622083067894,-0.008476778864860535,0.08607758581638336,-0.09701450914144516,0.13022948801517487,-0.057797204703092575,0.0035559814423322678,0.05797361582517624,-0.06784316897392273,0.20395927131175995,-0.08840420097112656,-0.07273901253938675,-0.022499771788716316,-0.06075138971209526,0.0016301549039781094,0.0035349444951862097,0.02078091725707054,-0.02833756059408188,1.0326168537139893,-1.3257074356079102,-0.5362176895141602,-0.11243914812803268,-1.7255659103393555,-3.7350826263427734,-0.26439428329467773,0.2630312442779541,-0.3376697897911072,-0.4765129089355469,-4.952660083770752,-0.9409362077713013,-2.385378837585449,-1.7031923532485962,-0.033678263425827026,-0.11534993350505829,0.004619169980287552,-1.7387255430221558,-0.25541529059410095,0.3625604510307312,-2.0423712730407715,-3.983682155609131,0.30452191829681396,0.38107430934906006,-0.5033001899719238,-0.03527000546455383,-5.474786758422852,0.12943613461996376,-0.058362208283720504,-0.008476779284432455,0.0860775886041143,-0.0970145127387892,0.13022949244216797,-0.05779720628564017,0.0035559813614778907,0.057973615507513336,-0.06784316928133562,4.079185509254329,-1.7680840182500983,-1.4547803226194116,-0.4499954206162019,-1.215027821441137,0.03260309769533888,0.07069888952653099,0.41561833987067287,-0.5667511973367465,20.65233621551947,0.0,0.0,0.0,0.0,0.0,0.0,0.0,0.0,0.0,0.0,-14.826279220162261,8.805984551773525,4.533876553546884,-2.093117282315966,3.7420979770622003,-2.702399141929376,3.255735708558817,-1.3179746468415765,-1.7781633384405606,-61.88916547727707
110,0.8819212913513184,0.4713967442512512,0.800000011920929,0.0,0.0,0.17448413372039795,-0.0774039551615715,-0.02479497715830803,0.07984969764947891,-0.10939925163984299,0.1303686797618866,-0.05691220983862877,0.005087211262434721,0.051040105521678925,0.008567570708692074,0.24432839453220367,-0.10431509464979172,-0.08850713074207306,-0.03771452605724335,-0.06319718807935715,0.0010408904636278749,0.002553564263507724,0.0086679020896554,-0.09888345003128052,1.237358570098877,-1.7387255430221558,-0.25541529059410095,0.3625604510307312,-2.0423712730407715,-3.983682155609131,0.30452191829681396,0.38107430934906006,-0.5033001899719238,-0.03527000546455383,-5.474786758422852,-1.1388311386108398,-2.6712965965270996,-2.0032379627227783,-0.042002007365226746,-0.14067423343658447,-0.01397512573748827,-1.9624327421188354,-0.15271349251270294,0.4242302179336548,-2.326587677001953,-4.190041542053223,0.45053160190582275,0.3792470097541809,-0.7952101230621338,0.14225713908672333,-5.854885578155518,0.17448413355186063,-0.07740395149405825,-0.02479497721064372,0.07984969624114842,-0.1093992515011835,0.13036867800963434,-0.05691220983412178,0.0050872113276637125,0.05104010700503003,0.008567570572197432,4.886567978047439,-2.0863018259579507,-1.7701425422922576,-0.7542905393714858,-1.263943722527099,0.020817808908276916,0.051071283710703824,0.17335804284153894,-1.9776689937620962,24.74717137516809,0.0,0.0,0.0,0.0,0.0,0.0,0.0,0.0,0.0,0.0,-18.14938660517953,10.903142567517346,5.806327171089648,-0.9311162315314792,3.901230419082481,-2.6698269869175175,3.261518738915195,-0.6218183550778911,2.8706005609844865,-74.25008169607646
120,0.9238795042037964,0.3826834261417389,0.800000011920929,0.0,0.0,0.22953110933303833,-0.10026001185178757,-0.04424301162362099,0.07125009596347809,-0.12343096733093262,0.13052141666412354,-0.05645730718970299,0.007267303299158812,0.049713458865880966,0.05043211579322815,0.3014419972896576,-0.12353036552667618,-0.10487546771764755,-0.04945879802107811,-0.07396776974201202,0.00035811171983368695,0.0022524921223521233,0.011907685548067093,0.07309647649526596,-0.46488747000694275,-1.9624327421188354,-0.15271349251270294,0.4242302179336548,-2.326587677001953,-4.190041542053223,0.45053160190582275,0.3792470097541809,-0.7952101230621338,0.14225713908672333,-5.854885578155518,-1.5120000839233398,-3.148526430130005,-2.2951791286468506,-0.052190013229846954,-0.17246749997138977,-0.03378518670797348,-2.1584131717681885,0.2730346918106079,0.718898355960846,-2.458165168762207,-4.030032157897949,0.6990280747413635,0.33548033237457275,-1.13336980342865,0.3389803171157837,-5.664236545562744,0.22953111384431424,-0.10026001183586229,-0.04424301125961818,0.07125009820215322,-0.12343097006003644,0.1305214136836034,-0.056457308745108646,0.007267303310657313,0.0497134597523146,0.05043211401297197,6.028839925312493,-2.470607254635575,-2.0975093511961957,-0.9891759358359674,-1.4793553701158373,0.0071622341325623465,0.045049840391441026,0.23815371562234472,1.4619295725752526,-9.297749378427017,0.0,0.0,0.0,0.0,0.0,0.0,0.0,0.0,0.0,0.0,-22.67714205282376,13.427422474058464,7.177388278780951,0.11752387942177345,4.561497080407548,-2.631914976069755,3.2522890035321956,-0.8598072130801804,-7.368596302864634,27.84281602126808
130,0.9569403529167175,0.290284663438797,0.800000011920929,0.0,0.0,0.2884172797203064,-0.12456909567117691,-0.06279157102108002,0.06866633147001266,-0.1420072466135025,0.13030242919921875,-0.054794590920209885,0.01097799837589264,0.0476299412548542,0.12668851017951965,0.009402604773640633,0.008820611983537674,0.10396327823400497,0.4079987704753876,-0.27326786518096924,-0.021332619711756706,0.07245572656393051,0.07525498420000076,-0.179404154419899,1.113650918006897,-2.1584131717681885,0.2730346918106079,0.718898355960846,-2.458165168762207,-4.030032157897949,0.6990280747413635,0.33548033237457275,-1.13336980342865,0.3389803171157837,-5.664236545562744,-1.8570256233215332,-3.7673451900482178,-2.5139918327331543,-0.06441650539636612,-0.20705443620681763,-0.0564943291246891,-2.2795958518981934,0.6134029030799866,0.6096309423446655,-2.4600186347961426,-4.5052080154418945,0.8421042561531067,0.43205738067626953,-1.1871064901351929,0.16839630901813507,-5.406796932220459,0.2884172688843236,-0.12456909660504009,-0.062791572444032,0.06866633380117422,-0.14200725103449596,0.13030242711508816,-0.054794592272277995,0.0109779982448693,0.047629942587343516,0.12668851479308038,0.1880520902078251,0.17641224647074338,2.0792655374566205,8.159975409627066,-5.46535714383366,-0.42665237737287387,1.4491145027634347,1.5050996238428649,-3.5880831828801023,22.273019263460146,0.0,0.0,0.0,0.0,0.0,0.0,0.0,0.0,0.0,0.0,-6.332501648309948,6.944909056890175,-4.981965163489221,-27.226579580928167,16.538078682535474,-1.3260914101831414,-1.0596679719536248,-4.734858836425981,7.9064529933996965,-66.94574630517351
140,0.9807852506637573,0.19509032368659973,0.800000011920929,0.0,0.0,0.29009589552879333,-0.12116412818431854,-0.05708245560526848,0.08508975058794022,-0.10069829225540161,0.10708694159984589,-0.03556539863348007,0.012743884697556496,0.040302615612745285,0.18170101940631866,0.011838491074740887,0.02047324925661087,0.026111604645848274,-0.05915866419672966,1.4288309812545776,-0.15309962630271912,0.12950538098812103,0.01325890701264143,-0.10891932249069214,1.1481566429138184,-2.2795958518981934,0.6134029030799866,0.6096309423446655,-2.4600186347961426,-4.5052080154418945,0.8421042561531067,0.43205738067626953,-1.1871064901351929,0.16839630901813507,-5.406796932220459,-0.6887143850326538,-1.4821351766586304,-1.6303527355194092,-0.0710836797952652,-0.2266843467950821,-0.07306703925132751,-2.203453779220581,0.40245696902275085,0.44772177934646606,-2.4679129123687744,-4.384486198425293,0.7711268067359924,0.2890663743019104,-1.1278139352798462,0.2074361890554428,-5.5419111251831055,0.2900958890854894,-0.1211641303252815,-0.057082456856592925,0.08508974779669239,-0.10069829406442209,0.10708694424825642,-0.035565399674931684,0.012743884861996792,0.040302615931551315,0.18170101340187586,0.2367698205555736,0.4094650034139134,0.5222320889355565,-1.1831732759534657,28.576620610115494,-3.0619926591514077,2.5901077480742507,0.2651781377679615,-2.178386512612913,22.963133579547414,0.0,0.0,0.0,0.0,0.0,0.0,0.0,0.0,0.0,0.0,-6.5122272433765085,6.04145280927515,-0.42504712967481106,0.1459299159927019,-85.62916353628206,7.044239092489095,-5.636399263726851,-1.0504121105438204,4.11700258194566,-69.07110175204411
150,0.9951847195625305,0.0980171412229538,0.800000011920929,0.0,0.0,0.2975083291530609,-0.11902910470962524,-0.059243910014629364,0.08840648084878922,-0.10259674489498138,0.06205631420016289,0.0018932801904156804,0.018448710441589355,0.03992409631609917,0.22648242115974426,0.05184192582964897,0.020394230261445045,-0.007692755665630102,-0.11879058182239532,1.0353362560272217,-0.28732830286026,0.2476840317249298,0.03452393412590027,-0.10312166810035706,1.43765127658844,-2.203453779220581,0.40245696902275085,0.44772177934646606,-2.4679129123687744,-4.384486198425293,0.7711268067359924,0.2890663743019104,-1.1278139352798462,0.2074361890554428,-5.5419111251831055,-0.08322557806968689,-0.7079741954803467,-1.844900369644165,-0.07084478437900543,-0.23873990774154663,-0.08979667723178864,-2.353367328643799,0.49961403012275696,0.36299821734428406,-2.505622625350952,-5.232132434844971,1.1259574890136719,0.231436088681221,-1.1812885999679565,0.1761263608932495,-6.030540466308594,0.29750833346400646,-0.11902910392382572,-0.05924390823213858,0.08840647982687898,-0.10259674594577459,0.062056315371833204,0.0018932802162704597,0.018448710963752366,0.039924095426032695,0.22648242285027037,1.0368385248397567,0.40788460354705763,-0.15385510907758237,-2.3758116520671493,20.706725353853116,-5.746565821772605,4.953680694134942,0.690478704934678,-2.0624334189672444,28.753025531539027,0.0,0.0,0.0,0.0,0.0,0.0,0.0,0.0,0.0,0.0,-9.060682243799398,5.9180924247883695,1.6464434918755186,3.5911757631262886,-62.017579315613574,15.99857115788115,-14.974638895381053,-2.4404103340790813,3.7918545313397716,-86.48555901746735
160,1.0,6.123234262925839e-17,0.800000011920929,0.0,0.0,0.30298876762390137,-0.11477790772914886,-0.07640919089317322,0.08429646492004395,-0.1307070553302765,-0.028716005384922028,0.0700751468539238,0.02328750491142273,0.05154148489236832,0.21727633476257324,-0.020445166155695915,0.020588623359799385,-0.1040688306093216,-0.028893886134028435,-0.11109961569309235,-0.6124332547187805,0.3343349099159241,-0.09731794148683548,0.05053029954433441,0.0017441093223169446,-2.353367328643799,0.49961403012275696,0.36299821734428406,-2.505622625350952,-5.232132434844971,1.1259574890136719,0.231436088681221,-1.1812885999679565,0.1761263608932495,-6.030540466308594,0.7192196846008301,0.8260678648948669,-2.2948598861694336,-0.06200588494539261,-0.24094049632549286,-0.11075916141271591,-2.2147631645202637,-0.09506092965602875,0.7114427089691162,-2.3529434204101562,-5.615688323974609,1.1744506359100342,0.12094482779502869,-0.875301718711853,0.08441603183746338,-6.3773932456970215,0.30298877689542464,-0.1147779104839024,-0.07640919109848489,0.084296465327916,-0.13070705344479625,-0.028716006125890495,0.07007514827948352,0.023287505473576695,0.05154148658809331,0.21727633986097172,-0.40890333520297495,0.4117724638891793,-2.0813766115987145,-0.5778777341378244,-2.221992259250678,-12.248665183045478,6.686697936254525,-1.9463588054526562,1.0106060192953534,0.03488218531756445,0.0,0.0,0.0,0.0,0.0,0.0,0.0,0.0,0.0,0.0,-4.833065532299568,5.651357237366606,7.772313656765841,-1.6382254107031669,6.79668383119683,37.32031567165425,-24.26460270553259,5.373326306886435,-6.124307253171659,-0.32192289581366507
170,0.9951847195625305,-0.0980171412229538,0.800000011920929,0.0,0.0,0.2833462357521057,-0.11647053807973862,-0.10121219605207443,0.0955979973077774,-0.14993169903755188,-0.17543213069438934,0.10776958614587784,0.007492686156183481,0.05127686262130737,0.21724043786525726,-0.14316532015800476,-0.017782432958483696,-0.13347454369068146,0.12482983618974686,-0.05533543974161148,-0.790656328201294,0.09841425716876984,-0.05781788006424904,-0.029962461441755295,-0.0021043396554887295,-2.2147631645202637,-0.09506092965602875,0.7114427089691162,-2.3529434204101562,-5.615688323974609,1.1744506359100342,0.12094482779502869,-0.875301718711853,0.08441603183746338,-6.3773932456970215,0.22455483675003052,1.951556921005249,-2.854538917541504,-0.05269736796617508,-0.22569550573825836,-0.1381525993347168,-2.0563406944274902,0.09355415403842926,1.0065269470214844,-2.1538572311401367,-5.923022747039795,1.4034669399261475,0.3106954097747803,-0.6374822854995728,-0.15116733312606812,-6.309817314147949,0.28334622259312103,-0.1164705397334575,-0.10121219904186997,0.09559799694050602,-0.14993170365887454,-0.17543212592211502,0.10776958696528202,0.007492686099230734,0.05127686412689593,0.2172404385282144,-2.863306274213741,-0.35564865056054346,-2.669490822011289,2.496596759461845,-1.1067088309039017,-15.8131269905542,1.968285181316881,-1.156357571561504,-0.5992492330445527,-0.04208679322005978,0.0,0.0,0.0,0.0,0.0,0.0,0.0,0.0,0.0,0.0,2.9229943707788024,8.05517833568908,10.032716446871266,-11.313710156005776,3.47005819637058,50.9480234901049,-12.371030761867564,3.3192189926998976,-1.2788641484800978,-0.09098005886803506
180,0.9807852506637573,-0.19509032368659973,0.800000011920929,0.0,0.0,0.2992507219314575,-0.12009646743535995,-0.10679487138986588,0.1121608093380928,-0.14262551069259644,-0.20754306018352509,0.11196410655975342,0.002705216873437166,-0.008215152658522129,0.18685553967952728,0.011028274893760681,0.013017382472753525,0.0743422880768776,0.15812252461910248,-0.24752935767173767,-0.0018921358278021216,-0.01758011430501938,-0.024047425016760826,-0.1573956459760666,0.4077238440513611,-2.0563406944274902,0.09355415403842926,1.0065269470214844,-2.1538572311401367,-5.923022747039795,1.4034669399261475,0.3106954097747803,-0.6374822854995728,-0.15116733312606812,-6.309817314147949,-0.4543313980102539,-2.4999637603759766,-0.6076669692993164,-0.05030885338783264,-0.23934487998485565,-0.1566428393125534,-1.7752281427383423,-0.6390935778617859,0.2799539566040039,-1.9184510707855225,-6.389516830444336,1.0511168241500854,0.488014817237854,-0.291835755109787,-0.454292356967926,-5.623253345489502,0.2992507237082028,-0.12009646970543396,-0.10679487126995255,0.11216080904189979,-0.14262551100621357,-0.20754305388458563,0.11196410706873373,0.002705216929326299,-0.008215152636009955,0.1868555332366726,0.22056549967229505,0.26034764597066856,1.4868457998300395,3.1624506141797566,-4.950587216120203,-0.03784271743296576,-0.3516022906198818,-0.4809485115326437,-3.1479129059182416,8.154476997701344,0.0,0.0,0.0,0.0,0.0,0.0,0.0,0.0,0.0,0.0,-6.646710973180943,6.424745244414032,-2.3246399740910677,-13.97378420421526,14.994387159366823,4.26438922999061,-5.663039552264378,1.3887411960114049,9.936647875915321,-24.650286526340707
190,0.9569403529167175,-0.290284663438797,0.800000011920929,0.0,0.0,0.3061041831970215,-0.11901181936264038,-0.09617873281240463,0.1286436766386032,-0.1328914314508438,-0.20823316276073456,0.10479407012462616,8.366900874534622e-05,-0.012749308720231056,0.0754588395357132,0.007282563019543886,0.004973766393959522,0.0442715659737587,0.09679773449897766,-0.42992469668388367,-0.003932803403586149,-0.0452340804040432,-0.0026301753241568804,-0.09232084453105927,0.21879541873931885,-1.7752281427383423,-0.6390935778617859,0.2799539566040039,-1.9184510707855225,-6.389516830444336,1.0511168241500854,0.488014817237854,-0.291835755109787,-0.454292356967926,-5.623253345489502,-0.3277171850204468,-2.0393922328948975,-0.3977273404598236,-0.05376877635717392,-0.2625720500946045,-0.1606302708387375,-1.538268804550171,-1.3447308540344238,0.17944587767124176,-1.804031491279602,-6.076591968536377,0.7633230686187744,0.847148060798645,-1.0544453859329224,0.03465607762336731,-5.357494354248047,0.30610417315430016,-0.11901182149109117,-0.09617873096643939,0.12864368129115622,-0.13289143622518934,-0.20823315662554304,0.10479407052756248,8.366900550599722e-05,-0.01274930886589138,0.07545883878328183,0.14565126075464838,0.09947532697729317,0.88543130310207,1.9359546559407872,-8.598493869041064,-0.07865606878490411,-0.9046816002239526,-0.052603508682008915,-1.8464169034881373,4.375908285457768,0.0,0.0,0.0,0.0,0.0,0.0,0.0,0.0,0.0,0.0,-6.559037245349948,6.842283308533591,-0.732719289977422,-10.95361121946861,25.928373043348383,4.400631338865574,-3.573599430981891,0.1561371459359068,6.304209242417895,-13.203183695156588
200,0.9238795042037964,-0.3826834261417389,0.800000011920929,0.0,0.0,0.3134571611881256,-0.11856710910797119,-0.08851929754018784,0.1405898630619049,-0.14576363563537598,-0.20908015966415405,0.09534967690706253,-0.0011602420127019286,-0.014755426906049252,-0.03661350533366203,0.008507356978952885,0.0019739768467843533,0.04909716174006462,0.10647452622652054,-0.1242048591375351,-0.004297483246773481,-0.04682072624564171,-0.011060311459004879,-0.08207085728645325,0.3319179117679596,-1.538268804550171,-1.3447308540344238,0.17944587767124176,-1.804031491279602,-6.076591968536377,0.7633230686187744,0.847148060798645,-1.0544453859329224,0.03465607762336731,-5.357494354248047,-0.17422814667224884,-1.81052827835083,-0.35918426513671875,-0.055412523448467255,-0.28192469477653503,-0.163715660572052,-1.6824963092803955,-1.484015703201294,0.1599794626235962,-1.8548083305358887,-5.1123833656311035,0.870235800743103,0.6387038230895996,-1.1999998092651367,0.3669825792312622,-5.160224437713623,0.31345716823605746,-0.11856711014500185,-0.08851929585947982,0.140589857566002,-0.14576364217539925,-0.20908016266150042,0.09534967789856108,-0.0011602419745274193,-0.014755426472973603,-0.03661350620417409,0.1701471387431821,0.03947953595276016,0.9819432568852462,2.129490500749884,-2.4840972474885663,-0.08594966322790987,-0.9364145434958063,-0.22120623234116932,-1.6414171332833207,6.638358235890994,0.0,0.0,0.0,0.0,0.0,0.0,0.0,0.0,0.0,0.0,-6.779584780950695,6.99558800084183,-1.1754438534661422,-12.012065804889733,7.598055384641098,4.439452242913738,-2.911737043426246,0.6868235365140564,5.809576988228378,-19.87846120146881
210,0.8819212913513184,-0.4713967442512512,0.800000011920929,0.0,0.0,0.3188565969467163,-0.11807556450366974,-0.0822652280330658,0.14690089225769043,-0.13172347843647003,-0.20978611707687378,0.08664035052061081,-0.0018486640183255076,-0.015751514583826065,-0.13850435614585876,0.04942859336733818,-0.002308798022568226,-0.002543706214055419,-0.10127165168523788,0.9753576517105103,-0.003905207384377718,-0.040446363389492035,0.001947298995219171,-0.044444672763347626,0.24013227224349976,-1.6824963092803955,-1.484015703201294,0.1599794626235962,-1.8548083305358887,-5.1123833656311035,0.870235800743103,0.6387038230895996,-1.1999998092651367,0.3669825792312622,-5.160224437713623,0.11907842755317688,-1.219204306602478,-0.0383668951690197,-0.05547008290886879,-0.2947141230106354,-0.16479846835136414,-1.386478066444397,-1.6632885932922363,-0.3210510015487671,-1.7025209665298462,-4.8797783851623535,0.4403703808784485,0.6999205350875854,-1.1882671117782593,0.3526909351348877,-4.892563819885254,0.3188566054280447,-0.11807556306845964,-0.08226522588381434,0.14690089898114653,-0.13172347397941073,-0.2097861110808205,0.0866403475800028,-0.0018486639603296562,-0.015751514078796457,-0.13850436297928934,0.9885718796049316,-0.04617595837049132,-0.05087412258105972,-2.0254329852633615,19.50715302261585,-0.07810414563100615,-0.8089273032755063,0.03894597954389492,-0.8888934222619675,4.802645311337468,0.0,0.0,0.0,0.0,0.0,0.0,0.0,0.0,0.0,0.0,-9.34284774737569,7.223061659219052,1.797926885419466,0.20026299654422353,-58.38973559386813,4.430034658509428,-2.771638944973649,-0.07986465942509163,3.61177111151369,-14.269431571033115
220,0.8314695954322815,-0.5555702447891235,0.800000011920929,0.0,0.0,0.32390114665031433,-0.11772394925355911,-0.07710427790880203,0.1525878608226776,-0.14295104146003723,-0.2105506956577301,0.07937031239271164,-0.0021292935125529766,-0.015882723033428192,-0.24939996004104614,0.04664186015725136,-0.002278916072100401,-0.004280757624655962,-0.10517190396785736,0.8450073599815369,-0.0027569287922233343,-0.032902222126722336,0.0038653090596199036,-0.03882100433111191,0.18859000504016876,-1.386478066444397,-1.6632885932922363,-0.3210510015487671,-1.7025209665298462,-4.8797783851623535,0.4403703808784485,0.6999205350875854,-1.1882671117782593,0.3526909351348877,-4.892563819885254,0.31518369913101196,-0.8375746607780457,0.1266707479953766,-0.05254485830664635,-0.3065350353717804,-0.16473108530044556,-1.3545031547546387,-1.7479488849639893,-0.3200414776802063,-1.6761952638626099,-5.092415809631348,0.6724732518196106,0.5726048350334167,-1.1360070705413818,0.46745389699935913,-5.129786491394043,0.3239011596821783,-0.11772395238691521,-0.07710427766280542,0.15258786357533505,-0.14295104063328914,-0.2105506919838756,0.07937031363596488,-0.0021292934697625817,-0.015882722628610128,-0.24939996327045721,0.9328371848647817,-0.0455783200787524,-0.0856151520976568,-2.1034380658910883,16.900146743675364,-0.05513857654954975,-0.6580444232298359,0.07730617909414558,-0.7764200568517863,3.7718001366182605,0.0,0.0,0.0,0.0,0.0,0.0,0.0,0.0,0.0,0.0,-9.27653474823791,7.2001721034511705,1.798931009549079,0.2067996546598625,-50.5574891903928,4.376429569326161,-2.7880855484683846,-0.1893326678871851,3.2822235282719667,-11.066000446584324
230,0.7730104327201843,-0.6343932747840881,0.800000011920929,0.0,0.0,0.3271110951900482,-0.11714113503694534,-0.07436202466487885,0.16368359327316284,-0.16875500977039337,-0.21102815866470337,0.07364603877067566,-0.0027200314216315746,-0.014172615483403206,-0.3646133840084076,0.02962968684732914,0.01037625316530466,0.00140820920933038,0.05314372852444649,-0.04879557341337204,-0.0017826157854869962,-0.025377532467246056,0.001750538358464837,-0.01502126082777977,0.18471691012382507,-1.3545031547546387,-1.7479488849639893,-0.3200414776802063,-1.6761952638626099,-5.092415809631348,0.6724732518196106,0.5726048350334167,-1.1360070705413818,0.46745389699935913,-5.129786491394043,0.5899394750595093,-0.8620266914367676,-0.011531258933246136,-0.04981936886906624,-0.31365421414375305,-0.16313008964061737,-1.3246339559555054,-1.4114410877227783,-0.052137576043605804,-1.579810380935669,-4.889397621154785,0.7281901836395264,0.27479660511016846,-0.6900646090507507,0.3234561085700989,-4.280765533447266,0.3271111046370326,-0.11714113561743196,-0.07436202342438113,0.1636835871708623,-0.1687550112336948,-0.21102816423330362,0.07364603536993344,-0.0027200314137780803,-0.014172615767512947,-0.36461337559647433,0.5925937487846508,0.20752507139625984,0.028164185205739836,1.062874569848864,-0.9759114997932492,-0.03565231612372208,-0.5075506468158528,0.03501076711147892,-0.30042522537436556,3.694338343394108,0.0,0.0,0.0,0.0,0.0,0.0,0.0,0.0,0.0,0.0,-8.320003339094605,6.405892922857138,1.402747912870403,-9.735967196381083,3.0964895106134422,4.327520233037238,-2.8961101817484476,-0.05063167305887516,1.7516326221738736,-10.718401654585849
240,0.7071067690849304,-0.7071067690849304,0.800000011920929,0.0,0.0,0.34115979075431824,-0.11397247761487961,-0.07746054977178574,0.16864660382270813,-0.17665454745292664,-0.21135461330413818,0.06912381201982498,-0.0020888790022581816,-0.008325943723320961,-0.46975448727607727,0.09260942041873932,0.01658431999385357,-0.027305223047733307,0.008913759142160416,-0.03458118811249733,-0.0012915460392832756,-0.02071784995496273,0.008316552266478539,-0.009537950158119202,0.2479800134897232,-1.3246339559555054,-1.4114410877227783,-0.052137576043605804,-1.579810380935669,-4.889397621154785,0.7281901836395264,0.27479660511016846,-0.6900646090507507,0.3234561085700989,-4.280765533447266,0.7246233224868774,-1.3497710227966309,-0.5503144264221191,-0.04234479367733002,-0.3250104486942291,-0.16613207757472992,-1.2780057191848755,-1.498985767364502,0.03305075317621231,-1.520269513130188,-5.055816173553467,0.7318640947341919,0.36491715908050537,-0.6652941703796387,0.23458297550678253,-4.193887710571289,0.3411597860169364,-0.11397247670228738,-0.07746055175503312,0.1686466097552429,-0.17665454808585487,-0.21135461041249434,0.06912381007736945,-0.0020888790903872247,-0.008325944184453827,-0.46975448163483907,1.8521883560272427,0.3316864184216966,-0.5461044549342164,0.17827517690238098,-0.6916237620544906,-0.025830919970272436,-0.4143569891206753,0.16633105354785044,-0.19075900938959545,4.959600358988165,0.0,0.0,0.0,0.0,0.0,0.0,0.0,0.0,0.0,0.0,-12.379760788420455,5.843289346872153,3.187524399903312,-7.280689920916859,2.251525834249327,4.304584968160704,-2.904357637280141,-0.4572155788358068,1.071833679236016,-14.409046595329658
250,0.6343932747840881,-0.7730104327201843,0.800000011920929,0.0,0.0,0.36467552185058594,-0.11107318103313446,-0.08449537307024002,0.16845431923866272,-0.18380630016326904,-0.21159310638904572,0.06540922075510025,-0.0006094442796893418,-0.00359720247797668,-0.5606623888015747,0.13211776316165924,0.010361146181821823,-0.04123973846435547,-0.0068228160962462425,-0.03555125743150711,-0.0009325621649622917,-0.01705940254032612,0.011414606124162674,-0.009294001385569572,0.30626389384269714,-1.2780057191848755,-1.498985767364502,0.03305075317621231,-1.520269513130188,-5.055816173553467,0.7318640947341919,0.36491715908050537,-0.6652941703796387,0.23458297550678253,-4.193887710571289,0.6560688614845276,-1.7174123525619507,-0.8573430776596069,-0.03260163217782974,-0.3413977324962616,-0.17508292198181152,-1.5067453384399414,-1.1777132749557495,0.45294371247291565,-1.5835753679275513,-5.2155866622924805,0.7827789783477783,0.43167412281036377,-0.4751516878604889,0.04943990707397461,-3.900752305984497,0.3646755247103071,-0.11107318177175105,-0.08449537446385233,0.168454322626407,-0.18380629614364785,-0.21159310278901167,0.0654092244018416,-0.0006094442522621968,-0.0035972024677110655,-0.5606623592034033,2.6423553188639923,0.20722291979518284,-0.8247947407216831,-0.13645632476223224,-0.7110251188961373,-0.01865124366548714,-0.34118806827563447,0.22829211936364158,-0.18588002554721106,6.125278110702151,0.0,0.0,0.0,0.0,0.0,0.0,0.0,0.0,0.0,0.0,-15.22057645079812,6.042722146919514,4.164291711442097,-6.328803930769584,2.31688165283206,4.287815786776695,-2.900989259283593,-0.6726874730456808,0.7734722247042971,-17.81517197290305
260,0.5555702447891235,-0.8314695954322815,0.800000011920929,0.0,0.0,0.3951855003833771,-0.11025092005729675,-0.09350910037755966,0.16636449098587036,-0.1916840672492981,-0.21176029741764069,0.06235668435692787,0.0013288679765537381,0.0004323451721575111,-0.6389424800872803,0.16534113883972168,-0.003001752309501171,-0.048618804663419724,-0.012798176147043705,-0.040925100445747375,-0.0006432177033275366,-0.013996384106576443,0.013338165357708931,-0.007346807979047298,0.3617863059043884,-1.5067453384399414,-1.1777132749557495,0.45294371247291565,-1.5835753679275513,-5.2155866622924805,0.7827789783477783,0.43167412281036377,-0.4751516878604889,0.04943990707397461,-3.900752305984497,0.4930737614631653,-2.078211784362793,-1.0461474657058716,-0.024020958691835403,-0.3597463369369507,-0.1833048313856125,-1.4462511539459229,-1.1929134130477905,0.7916209101676941,-1.3879384994506836,-4.6927900314331055,0.7415551543235779,0.37071847915649414,-0.32587575912475586,-0.12732404470443726,-2.8597614765167236,0.39518549470203124,-0.1102509175217653,-0.09350910257996095,0.16636449109145154,-0.19168406295284082,-0.2117603017329085,0.062356682956550384,0.0013288680192065092,0.0004323451806331341,-0.6389424574051717,3.3068226306991666,-0.06003504679727935,-0.9723760664126799,-0.2559635152689361,-0.8185019794894806,-0.012864353719203515,-0.2799276771154684,0.26676330144576466,-0.14693615582844854,7.235726378875718,0.0,0.0,0.0,0.0,0.0,0.0,0.0,0.0,0.0,0.0,-17.824177786138126,6.7951601916977555,4.787310250837258,-5.886689097851254,2.6471900014212824,4.27379909581578,-2.901617946046618,-0.8268672647214241,0.4148677566473576,-21.068236679221982
270,0.4713967442512512,-0.8819212913513184,0.800000011920929,0.0,0.0,0.4323982894420624,-0.11269920319318771,-0.10369743406772614,0.163352370262146,-0.200845867395401,-0.21187175810337067,0.05984986573457718,0.0035954639315605164,0.004169156309217215,-0.7050420045852661,0.20028118789196014,-0.021464679390192032,-0.05364002287387848,-0.017145607620477676,-0.04788786545395851,-0.0004117904754821211,-0.011552947573363781,0.014539172872900963,-0.004445130005478859,0.41853025555610657,-1.4462511539459229,-1.1929134130477905,0.7916209101676941,-1.3879384994506836,-4.6927900314331055,0.7415551543235779,0.37071847915649414,-0.32587575912475586,-0.12732404470443726,-2.8597614765167236,0.23142404854297638,-2.478769302368164,-1.1671111583709717,-0.015567333437502384,-0.3835426867008209,-0.19352714717388153,-1.4584362506866455,-1.1993168592453003,0.9199029803276062,-1.2649743556976318,-4.2506422996521,0.7761307954788208,0.18394160270690918,-0.19238239526748657,-0.173624187707901,-2.2070460319519043,0.43239829542143804,-0.11269920678078879,-0.10369743770996599,0.16335237361625046,-0.20084587421324168,-0.21187175704880137,0.05984986706692622,0.0035954638310790638,0.004169156132383915,-0.705042009959989,4.005623691052117,-0.42929357226958026,-1.0728004398321094,-0.3429121465787973,-0.9577573130543342,-0.008235809724128339,-0.231058946414157,0.29078346551801115,-0.0889025977635558,8.3706054058024,0.0,0.0,0.0,0.0,0.0,0.0,0.0,0.0,0.0,0.0,-20.66483698158511,8.049833123656068,5.292350073695648,-5.505358504913627,3.074117813376244,4.262142570148413,-2.8978151847731026,-0.9442596731756148,0.01655842534763252,-24.406774207447214
280,0.3826834261417389,-0.9238795042037964,0.800000011920929,0.0,0.0,0.4612288475036621,-0.11517051607370377,-0.105780690908432,0.16843536496162415,-0.19909459352493286,-0.2120083123445511,0.057994455099105835,0.004297612700611353,0.0022489314433187246,-0.75985187292099,0.13468019664287567,-0.023522138595581055,-0.023179467767477036,0.03810994699597359,-0.09069627523422241,-0.00020934554049745202,-0.007650546729564667,0.013805183582007885,-0.01403492409735918,0.4455046057701111,-1.4584362506866455,-1.1993168592453003,0.9199029803276062,-1.2649743556976318,-4.2506422996521,0.7761307954788208,0.18394160270690918,-0.19238239526748657,-0.173624187707901,-2.2070460319519043,0.16097129881381989,-2.1821043491363525,-0.7744156718254089,-0.009828639216721058,-0.40547865629196167,-0.2065877914428711,-1.0874757766723633,-1.306325912475586,0.5002551078796387,-0.99289470911026,-3.9129295349121094,0.46267426013946533,0.28014254570007324,-0.298096239566803,-0.030145157128572464,-1.7330735921859741,0.4612288611014277,-0.11517051390841247,-0.10578069213877565,0.1684353713637599,-0.19909459441498717,-0.21200830523771189,0.057994454417794605,0.004297612631492535,0.0022489315529099357,-0.7598518911833497,2.693603788364067,-0.47044277094686426,-0.4635893711618741,0.7621989552806638,-1.8139254898304566,-0.004186910766021665,-0.15301093081781686,0.27610367893444904,-0.2806984829821303,8.910092406099967,0.0,0.0,0.0,0.0,0.0,0.0,0.0,0.0,0.0,0.0,-17.305388587120753,8.32155914734534,3.5063819562611354,-9.024011720392387,5.640871063906357,4.252726837052303,-3.020634472614226,-0.9142632894331978,0.7071595557717947,-25.97042532711655
290,0.290284663438797,-0.9569403529167175,0.800000011920929,0.0,0.0,0.4713197648525238,-0.11608622223138809,-0.10164384543895721,0.1806199550628662,-0.20856887102127075,-0.21214023232460022,0.056988172233104706,0.0028423864860087633,-0.002669735811650753,-0.812881588935852,0.012120340950787067,-9.995899745263159e-05,0.03642980381846428,0.11455685645341873,-0.11523136496543884,-0.0008596691768616438,-0.0038947213906794786,-0.013220207765698433,-0.0479489266872406,0.4538393020629883,-1.0874757766723633,-1.306325912475586,0.5002551078796387,-0.99289470911026,-3.9129295349121094,0.46267426013946533,0.28014254570007324,-0.298096239566803,-0.030145157128572464,-1.7330735921859741,0.3405042588710785,-1.6452784538269043,-0.36972182989120483,-0.006034519989043474,-0.4241998791694641,-0.21092276275157928,-0.9149436354637146,-1.4354575872421265,0.35680967569351196,-0.8736138939857483,-3.7124390602111816,0.30587512254714966,0.2678564190864563,-0.34566837549209595,0.12102405726909637,-1.6265588998794556,0.4713197722324264,-0.11608622112603778,-0.10164384522407806,0.1806199596589696,-0.20856886883147474,-0.21214022914112138,0.05698817086626094,0.0028423864398687735,-0.0026697357262080385,-0.8128815780625881,0.24240682109534073,-0.0019991799908275487,0.7285960455291991,2.2911371970659826,-2.3046272994633763,-0.017193383436770383,-0.07789442811818667,-0.2644041528848785,-0.9589785056401616,9.076785762064365,0.0,0.0,0.0,0.0,0.0,0.0,0.0,0.0,0.0,0.0,-10.15361590793455,6.971170807534749,-0.1529112321060362,-14.098209977556731,7.122450767221603,4.2943847331327385,-3.1856069676210965,0.7363647298572601,3.037119660492967,-26.417475708130507
300,0.19509032368659973,-0.9807852506637573,0.800000011920929,0.0,0.0,0.4811864495277405,-0.11744147539138794,-0.09889085590839386,0.18878769874572754,-0.2116774320602417,-0.21219989657402039,0.05629813298583031,0.0018494846299290657,-0.004218386020511389,-0.8652900457382202,0.007922007702291012,-0.0037303026765584946,0.025289438664913177,0.11983320862054825,-0.0915403887629509,-0.0007387840305455029,-0.0035927188582718372,-0.019398970529437065,-0.03145473450422287,0.4600642919540405,-0.9149436354637146,-1.4354575872421265,0.35680967569351196,-0.8736138939857483,-3.7124390602111816,0.30587512254714966,0.2678564190864563,-0.34566837549209595,0.12102405726909637,-1.6265588998794556,0.4976746737957001,-1.4210704565048218,-0.2291674017906189,-4.9724392738426104e-05,-0.43808138370513916,-0.21362099051475525,-0.8054153323173523,-1.5092906951904297,0.26135796308517456,-0.8225317597389221,-3.4047698974609375,0.19511614739894867,0.16764326393604279,-0.23818495869636536,0.2329786866903305,-1.405725121498108,0.48118645593052944,-0.1174414736488771,-0.09889085806034348,0.18878769307766163,-0.21167743126542718,-0.21219989628799504,0.056298134784976486,0.00184948462076512,-0.004218386224689078,-0.8652900652650682,0.15844015082448615,-0.07460605539807955,0.5057887768983237,2.396664218818102,-1.8308078456616677,-0.014775681084627663,-0.07185437609678459,-0.38797939424291533,-0.6290946925132717,9.20128597684193,-0.20135383307933807,-0.3773226737976074,0.06533949077129364,-0.20563293993473053,-0.8511924743652344,0.04877903684973717,0.041910815984010696,-0.05954623967409134,0.058244671672582626,-0.351431280374527,-14.126126232670808,-15.369053842729581,1.7672406459377714,-22.96681797694999,4.852908493885195,5.2639057060085275,-0.6476759997675936,-0.0639763031683831,5.6350675513761175,-27.08999914563525
310,0.0980171412229538,-0.9951847195625305,0.800000011920929,0.0,0.0,0.48172512650489807,-0.11771249771118164,-0.09386571496725082,0.20555651187896729,-0.22424769401550293,-0.21225358545780182,0.05588005483150482,-0.0029130263719707727,0.0012282499810680747,-0.8970630168914795,-0.0031007016077637672,-0.0011157725239172578,0.026121288537979126,0.0672759860754013,-0.047593336552381516,-6.575584120582789e-05,-0.0018654648447409272,-0.016860920935869217,0.041304249316453934,0.15024562180042267,-0.8054153323173523,-1.5092906951904297,0.26135796308517456,-0.8225317597389221,-3.4047698974609375,0.19511614739894867,0.16764326393604279,-0.23818495869636536,0.2329786866903305,-1.405725121498108,0.8178314566612244,-0.6473228931427002,0.08893492072820663,0.006093146279454231,-0.44690167903900146,-0.2127302587032318,-0.5050708055496216,-1.8145381212234497,0.1805049479007721,-0.7380872368812561,-3.0567235946655273,-0.10781988501548767,0.05917292833328247,-0.3153461813926697,0.2646827697753906,-1.2787895202636719,0.4817251347005372,-0.11771250082067196,-0.09386571170738597,0.20555651056358837,-0.22424768702383924,-0.21225358327052649,0.055880053701778704,-0.0029130264272557477,0.001228250023517149,-0.8970629923526604,-0.0620140314073399,-0.022315450193917407,0.5224257802038798,1.345519738766747,-0.9518667018686993,-0.001315116763342204,-0.03730929690791223,-0.337218418106802,0.826085022373206,3.004912504239278,-0.1262677013874054,-0.4536345303058624,0.045126236975193024,-0.18452180922031403,-0.7641808986663818,-0.026954971253871918,0.014793232083320618,-0.07883654534816742,0.06617069244384766,-0.31969738006591797,-11.97381462753683,-20.088375418529676,1.212561633039941,-19.639692007656336,2.3156668939635554,3.709917590623118,-2.3532814063837484,-0.5068151240978276,1.4182914781002123,-8.43737190043109
320,1.2246468525851679e-16,-1.0,0.800000011920929,0.0,0.0,0.47628268599510193,-0.11756698787212372,-0.0874260663986206,0.2187989205121994,-0.2311546951532364,-0.21229712665081024,0.05541597306728363,-0.008193560875952244,0.009694764390587807,-0.8905552625656128,-0.03351368382573128,0.005844229832291603,0.030155546963214874,0.05476728454232216,-0.02252490445971489,-0.00024372091866098344,-0.0021194336004555225,-0.023581290617585182,0.04094383120536804,0.5026296973228455,-0.5050708055496216,-1.8145381212234497,0.1805049479007721,-0.7380872368812561,-3.0567235946655273,-0.10781988501548767,0.05917292833328247,-0.3153461813926697,0.2646827697753906,-1.2787895202636719,0.9936907291412354,-0.24014297127723694,0.11103995889425278,0.014081486500799656,-0.449520468711853,-0.21052329242229462,-0.3524077534675598,-1.817232608795166,0.3019818663597107,-0.6501069664955139,-2.897490978240967,-0.22038929164409637,-0.17165206372737885,-0.07208769768476486,0.0974951982498169,-0.8954698443412781,0.47628268372512284,-0.11756698999356788,-0.08742606961502637,0.21879891534945758,-0.23115469365870092,-0.2122971212055256,0.05541597158741732,-0.008193560435405893,0.00969476448881055,-0.8905552674151067,-0.6702736637614467,0.11688460063265817,0.6031109531277918,1.0953457103691764,-0.45049807262362906,-0.004874418232230553,-0.04238867412047993,-0.47162580880249777,0.8188766148537386,10.052594162310829,-0.08810193836688995,-0.4543081521987915,0.07549546658992767,-0.16252674162387848,-0.7243727445602417,-0.055097322911024094,-0.04291301593184471,-0.018021924421191216,0.024373799562454224,-0.22386746108531952,-9.276871450555916,-20.555123534211393,1.4490978647157053,-18.539063410040974,0.8582761669693465,3.1586192205867216,-5.772573228794282,1.2183101466917867,-1.5758877401425955,-29.4910946806027
330,-0.0980171412229538,-0.9951847195625305,0.800000011920929,0.0,0.0,0.458536833524704,-0.1170576736330986,-0.07834760844707489,0.23434527218341827,-0.23459914326667786,-0.2124050259590149,0.05496549978852272,-0.009271309711039066,0.00811811350286007,-0.8993988633155823,-0.12103958427906036,0.0040097348392009735,0.054224539548158646,0.08530852198600769,-0.011163940653204918,-0.0006031363154761493,-0.0022595871705561876,-0.00709863705560565,-0.013963023200631142,0.08521729707717896,-0.3524077534675598,-1.817232608795166,0.3019818663597107,-0.6501069664955139,-2.897490978240967,-0.22038929164409637,-0.17165206372737885,-0.07208769768476486,0.0974951982498169,-0.8954698443412781,1.0212527513504028,0.7571563720703125,0.5016906261444092,0.023411769419908524,-0.4440268278121948,-0.2062688171863556,0.055727072060108185,-1.8734561204910278,0.14684194326400757,-0.5072522759437561,-2.5722203254699707,-0.636250376701355,-0.17667143046855927,-0.05174010992050171,-0.13784369826316833,-0.41572296619415283,0.4585368429523558,-0.11705767133794427,-0.07834760927374981,0.2343452767598775,-0.23459914738998736,-0.21240502305567663,0.05496549898591518,-0.009271310132915045,0.00811811388111852,-0.8993988755980393,-2.4207916404969563,0.08019469665868391,1.0844907572727485,1.7061703735365186,-0.22327882197731108,-0.012062725856227315,-0.045191741858067444,-0.14197274055284484,-0.2792604615836983,1.7043460027525472,0.013931768015027046,-0.46836403012275696,0.03671048581600189,-0.12681306898593903,-0.6430550813674927,-0.15906259417533875,-0.044167857617139816,-0.012935027480125427,-0.034460924565792084,-0.10393074154853821,-1.6297265772557061,-21.318965617064816,-0.9523103700232114,-19.564844950442215,0.2613805319544279,1.1030367551754396,-5.812426170609098,0.3526438747143269,-1.7169609220635413,-4.31756987420814
340,-0.19509032368659973,-0.9807852506637573,0.800000011920929,0.0,0.0,0.4249711036682129,-0.11449721455574036,-0.06610807776451111,0.2533749043941498,-0.235086590051651,-0.2125309705734253,0.05450158938765526,-0.01105307787656784,-0.0050908359698951244,-0.8586362600326538,-0.19969423115253448,0.021701935678720474,0.06547291576862335,0.09739921241998672,0.006391370669007301,-0.0007021837518550456,-0.002141066361218691,-0.007883591577410698,-0.08234716206789017,0.9244524836540222,0.055727072060108185,-1.8734561204910278,0.14684194326400757,-0.5072522759437561,-2.5722203254699707,-0.636250376701355,-0.17667143046855927,-0.05174010992050171,-0.13784369826316833,-0.41572296619415283,1.315502405166626,1.66769278049469,0.7132012248039246,0.0307942945510149,-0.43352147936820984,-0.19911988079547882,0.4213554263114929,-1.4935495853424072,0.0309387668967247,-0.29059332609176636,-2.5778887271881104,-0.9271024465560913,-0.029814347624778748,-0.34865623712539673,-0.56041419506073,-0.1022896021604538,0.42497109652759846,-0.11449721226048773,-0.06610807572325784,0.2533749192681838,-0.23508659600765242,-0.2125309659285914,0.05450158757957248,-0.011053077536674165,-0.005090836187165535,-0.8586362757396566,-3.9938845020653586,0.43403869706913906,1.3094582869823301,1.94798420541633,0.12782741730314862,-0.014043675379275,-0.04282132945886426,-0.15767182596389512,-1.646943266006156,18.489049158907797,0.10533885657787323,-0.3733873963356018,0.007734691724181175,-0.07264833152294159,-0.6444721817970276,-0.23177561163902283,-0.007453586906194687,-0.08716405928134918,-0.1401035487651825,-0.02557240054011345,5.58900870720157,-16.835527135714262,-2.4515195119982103,-18.884882647894006,-0.792867837698821,-0.3427618880708038,-3.588846480769437,-1.049204157001815,-3.1599329566625496,-54.63408360152385
350,-0.290284663438797,-0.9569403529167175,0.800000011920929,0.0,0.0,0.392090380191803,-0.11140505224466324,-0.05600244924426079,0.26342299580574036,-0.2317328006029129,-0.21305207908153534,0.054362259805202484,-0.012684212066233158,-0.02895231358706951,-0.8356037735939026,-0.0783061608672142,-0.02758360654115677,0.026295170187950134,-0.00826979335397482,-0.03888104483485222,-0.00054611184168607,-0.0030861012637615204,0.04349125176668167,-0.18185395002365112,0.3621663451194763,0.4213554263114929,-1.4935495853424072,0.0309387668967247,-0.29059332609176636,-2.5778887271881104,-0.9271024465560913,-0.029814347624778748,-0.34865623712539673,-0.56041419506073,-0.1022896021604538,0.520027220249176,0.5711200833320618,0.32725632190704346,0.04096819832921028,-0.4162454307079315,-0.19366896152496338,0.43217504024505615,-0.6560763120651245,0.21850210428237915,-0.14104565978050232,-2.2477190494537354,-1.0173803567886353,0.20758111774921417,-0.6569370031356812,-1.0438660383224487,0.16217222809791565,0.3920903880260892,-0.11140505389844077,-0.056002448164490286,0.26342299215556575,-0.23173280158834292,-0.21305207850426747,0.05436226108551142,-0.01268421249609883,-0.02895231308619605,-0.8356037569622181,-1.5661232712157882,-0.551672126314978,0.5259033915145127,-0.16539586268898349,-0.7776209085404926,-0.010922236660337481,-0.061722023982343076,0.8698250002102603,-3.6370789005648696,7.243327194938974,0.10804376006126404,-0.16401907801628113,0.05462552607059479,-0.03526141494512558,-0.5619297623634338,-0.2543450891971588,0.05189527943730354,-0.1642342507839203,-0.2609665095806122,0.04054305702447891,-0.9825627456491386,-1.5018250681254877,0.6348493101581636,-11.451188695960703,2.002665764846387,-0.7930935038768145,0.03714717305455664,-5.64047576638721,-3.0096150879703583,-20.853834770830225
360,-0.3826834261417389,-0.9238795042037964,0.800000011920929,0.0,0.0,0.3855911195278168,-0.11762311309576035,-0.051681552082300186,0.24529221653938293,-0.19218003749847412,-0.21328221261501312,0.05113599821925163,-0.01668385975062847,-0.06581088155508041,-0.8008277416229248,-0.021368464455008507,-0.03320576623082161,0.020882753655314445,-0.10289400070905685,-0.15719346702098846,-0.0008757950272411108,-0.01416254136711359,-0.03694779425859451,-0.2220025211572647,0.7747683525085449,0.43217504024505615,-0.6560763120651245,0.21850210428237915,-0.14104565978050232,-2.2477190494537354,-1.0173803567886353,0.20758111774921417,-0.6569370031356812,-1.0438660383224487,0.16217222809791565,0.4536343812942505,0.3922164738178253,0.0008912415360100567,0.04287750646471977,-0.4123402535915375,-0.19163855910301208,0.355415940284729,0.1723196804523468,0.07128819823265076,0.17763444781303406,-2.0448734760284424,-0.9604079723358154,0.4001312255859375,-1.003801941871643,-1.5099132061004639,-0.10506986081600189,0.38559112134770485,-0.11762311409078528,-0.05168155036080293,0.24529221639498425,-0.1921800346063548,-0.21328221963445568,0.051135997716704885,-0.016683859715089264,-0.06581088059613496,-0.8008277293663261,-0.42736928343845043,-0.6641153472202106,0.41765507350565023,-2.0578800656901306,-3.1438691965374232,-0.017515900318426432,-0.2832508357235364,-0.7389558712385149,-4.4400504705032375,15.495366667678047,0.08885398507118225,0.0430799201130867,0.01782204955816269,0.044408611953258514,-0.5112183690071106,-0.24010199308395386,0.10003280639648438,-0.25095048546791077,-0.37747830152511597,-0.026267465204000473,-4.6526348752151,11.634528093892952,0.1371067778623618,-1.8617039805986382,9.112569255211515,-0.4838477680346843,3.7835610279573784,-2.4684649013408855,-5.379893844229148,-45.711539738871814
370,-0.4713967442512512,-0.8819212913513184,0.800000011920929,0.0,0.0,0.3858241140842438,-0.11794712394475937,-0.0528070405125618,0.2299376279115677,-0.1901329755783081,-0.2132418304681778,0.049977321177721024,-0.0327393002808094,-0.1148279681801796,-0.7832987308502197,0.008017179556190968,0.008058740757405758,-0.0019738085102289915,-0.08157546073198318,0.08093424886465073,4.614022691384889e-05,0.0003415296087041497,-0.07834187895059586,-0.1898811012506485,0.7860354781150818,0.355415940284729,0.1723196804523468,0.07128819823265076,0.17763444781303406,-2.0448734760284424,-0.9604079723358154,0.4001312255859375,-1.003801941871643,-1.5099132061004639,-0.10506986081600189,0.8095341324806213,0.03541731834411621,-0.31998729705810547,0.05126938968896866,-0.40897035598754883,-0.19460870325565338,-0.014187350869178772,0.2204882800579071,0.1066478043794632,0.5736619234085083,-1.3432890176773071,-0.6330885291099548,0.3836989402770996,-0.602677047252655,-1.5261454582214355,-0.29068511724472046,0.3858241184349578,-0.11794712260783921,-0.0528070388352565,0.2299376275826924,-0.190132980780066,-0.21324182707614872,0.049977322299252974,-0.032739300107674535,-0.11482796659096292,-0.7832987154538181,0.16034359373600027,0.16117481735389957,-0.039476172310108304,-1.6315091535691306,1.6186850108192696,0.000922804505849386,0.006830592292451251,-1.5668375529199488,-3.7976221110586934,15.720709763439736,-0.003546837717294693,0.055122070014476776,0.0266619510948658,0.14341548085212708,-0.3358222544193268,-0.1582721322774887,0.0959247350692749,-0.15066926181316376,-0.3815363645553589,-0.07267127931118011,-8.26844990425305,9.90062710527726,1.707808315532771,1.433641591484779,-5.001744306097069,1.096625482455652,2.736352989323962,2.341913424650062,-4.609637544687676,-46.45150185417657
380,-0.5555702447891235,-0.8314695954322815,0.800000011920929,0.0,0.0,0.38885143399238586,-0.11803940683603287,-0.05169777572154999,0.2193201631307602,-0.18260502815246582,-0.21309421956539154,0.05085291340947151,-0.04021181911230087,-0.13790002465248108,-0.7726937532424927,0.00839831680059433,0.004324480425566435,0.04891098663210869,-0.0824311226606369,0.7258738279342651,-0.0001259856653632596,0.0015207765391096473,-0.04698823392391205,-0.0756225734949112,0.7519283294677734,-0.014187350869178772,0.2204882800579071,0.1066478043794632,0.5736619234085083,-1.3432890176773071,-0.6330885291099548,0.3836989402770996,-0.602677047252655,-1.5261454582214355,-0.29068511724472046,0.7497182488441467,-0.32025617361068726,-0.303093284368515,0.060298722237348557,-0.4106800854206085,-0.1978551745414734,-0.09752772748470306,0.0374017171561718,0.028018437325954437,0.7276920676231384,-0.9638990759849548,-0.5281956195831299,0.368264377117157,-0.8324127197265625,-1.349047303199768,-0.14620734751224518,0.38885143479054374,-0.11803940403909843,-0.051697774196801376,0.21932016190301062,-0.18260502789775612,-0.21309422236090078,0.050852912231592266,-0.040211819308061,-0.13790002883023542,-0.772693762059017,0.16796634522913423,0.08648960997751265,0.9782197156177194,-1.6486224949560395,14.517476399726476,-0.00251971322986436,0.03041552977784573,-0.9397647079845473,-1.5124515162375547,15.038566414624935,-0.024381931871175766,0.00935042928904295,0.007004609331488609,0.1819230169057846,-0.2409747689962387,-0.13204890489578247,0.09206609427928925,-0.20810317993164062,-0.337261825799942,-0.036551836878061295,-8.768566368921793,7.383921169755945,-1.7606114762873584,3.449981684979078,-43.61079894027791,1.6284654889919594,2.3815443335282818,-0.5385330885179509,-7.424353269469731,-44.37955731869385
390,-0.6343932747840881,-0.7730104327201843,0.800000011920929,0.0,0.0,0.389821857213974,-0.1182708740234375,-0.0486798994243145,0.2153647094964981,-0.169317826628685,-0.2130197286605835,0.05078783258795738,-0.05139845237135887,-0.14654186367988586,-0.7671554088592529,0.006135671865195036,0.0060942769050598145,0.028876928612589836,-0.0589509978890419,1.3130171298980713,0.00028971597203053534,0.0007604965358041227,-0.05197816342115402,-0.025891654193401337,0.7343901991844177,-0.09752772748470306,0.0374017171561718,0.028018437325954437,0.7276920676231384,-0.9638990759849548,-0.5281956195831299,0.368264377117157,-0.8324127197265625,-1.349047303199768,-0.14620734751224518,0.8644669055938721,-0.4104095995426178,-0.2927429974079132,0.07070037722587585,-0.41497498750686646,-0.20102877914905548,-0.14325809478759766,-0.08472153544425964,0.07986123859882355,0.7043318152427673,-1.036375880241394,-0.4986732602119446,0.36016950011253357,-0.7167762517929077,-1.3033970594406128,-0.41823530197143555,0.389821860775867,-0.11827087314718929,-0.04867990059852866,0.21536470512157113,-0.16931782309025004,-0.2130197338151174,0.05078783408695234,-0.051398452852487286,-0.1465418627310179,-0.7671554045002266,0.12271343710557185,0.12188554121901496,0.5775385678218397,-1.1790199829423236,26.260343092976996,0.005794319437649614,0.015209930543004317,-1.0395632607036485,-0.5178330972317051,14.68780388041202,-0.035814523696899414,-0.02118038386106491,0.019965309649705887,0.17608295381069183,-0.2590939700603485,-0.12466831505298615,0.09004237502813339,-0.17919406294822693,-0.3258492648601532,-0.10455882549285889,-8.880868000772043,5.459772733510418,-0.35971149850082784,1.965789896391799,-78.87080542590108,1.7496454169296765,2.30964266484185,0.562777580196153,-9.204944836053002,-43.40081506222869
400,-0.7071067690849304,-0.7071067690849304,0.800000011920929,0.0,0.0,0.390071839094162,-0.11834868788719177,-0.048063214868307114,0.2152656465768814,-0.1571282148361206,-0.2129223346710205,0.0509774386882782,-0.05964570865035057,-0.1491846740245819,-0.7631965279579163,0.000556947838049382,-0.0007258556433953345,-0.0018458928680047393,0.001051516504958272,-0.045813772827386856,0.00021187674428801984,0.0009744279086589813,-0.03846235200762749,-0.007892784662544727,0.7307881712913513,-0.14325809478759766,-0.08472153544425964,0.07986123859882355,0.7043318152427673,-1.036375880241394,-0.4986732602119446,0.36016950011253357,-0.7167762517929077,-1.3033970594406128,-0.41823530197143555,0.8692571520805359,-0.42849603295326233,-0.23400267958641052,0.0810827985405922,-0.41830357909202576,-0.20474475622177124,-0.16075707972049713,-0.19590015709400177,0.08000773936510086,0.45744067430496216,-1.1618901491165161,-0.5867528319358826,0.30505672097206116,-0.6728342175483704,-1.3751282691955566,-0.7283743619918823,0.3900718335037198,-0.11834868778245432,-0.048063213739879526,0.21526565372052148,-0.15712822063985285,-0.21292233533317811,0.0509774392146917,-0.059645710414526924,-0.14918467566457522,-0.7631965028665011,0.011138956779693314,-0.014517112328187157,-0.036917858338170996,0.021030330547213556,-0.9162754913915064,0.004237534854868606,0.019488558551465463,-0.7692470064350949,-0.15785568583207918,14.615763159090292,-0.04018926993012428,-0.04897503927350044,0.020001934841275215,0.11436016857624054,-0.29047253727912903,-0.14668820798397064,0.07626418024301529,-0.1682085543870926,-0.34378206729888916,-0.18209359049797058,-8.638638939015962,4.205970247521794,1.4720565466376079,-4.099310397412879,2.615482157535243,1.3119699424195437,1.458738786045019,0.13648413985397134,-11.2022764405626,-43.26618656490235
410,-0.7730104327201843,-0.6343932747840881,0.800000011920929,0.0,0.0,0.38979190587997437,-0.11790657788515091,-0.04831372946500778,0.21719402074813843,-0.1648084819316864,-0.21280209720134735,0.05116379261016846,-0.06696482002735138,-0.1501087099313736,-0.7577800750732422,-0.0013667631428688765,0.0053850444965064526,-0.0033303042873740196,0.03140267729759216,-0.011380215175449848,0.00027628589305095375,-0.00028849320369772613,-0.030186453834176064,-0.003224130952730775,0.7495265007019043,-0.16075707972049713,-0.19590015709400177,0.08000773936510086,0.45744067430496216,-1.1618901491165161,-0.5867528319358826,0.30505672097206116,-0.6728342175483704,-1.3751282691955566,-0.7283743619918823,1.014320731163025,-0.616500973701477,-0.4074839949607849,0.09077420830726624,-0.42394909262657166,-0.2075638324022293,-0.11635525524616241,-0.14047424495220184,0.027166128158569336,0.36796069145202637,-1.6846954822540283,-0.6160506010055542,0.43284809589385986,-0.54484623670578,-1.4618030786514282,-1.2947402000427246,0.38979190007234293,-0.11790657529146406,-0.04831372913335835,0.2171940202106202,-0.1648084857523992,-0.21280209122150306,0.05116379260464619,-0.06696481909147264,-0.15010871177742596,-0.7577801032428215,-0.027335262306401625,0.10770088954806883,-0.06660608767535578,0.6280535463844416,-0.22760429993356357,0.005525718004501296,-0.005769863802861191,-0.6037290792838061,-0.06448262066545316,14.990530607166182,-0.029088813811540604,-0.03511856123805046,0.006791532039642334,0.09199017286300659,-0.4211738705635071,-0.15401265025138855,0.10821202397346497,-0.136211559176445,-0.36545076966285706,-0.32368505001068115,-8.295608490758466,4.64417817456061,1.3019234864860811,-6.892314533057869,0.42644751498958283,1.1592116653887865,3.4402034735377103,0.4262524361519713,-12.727075611129505,-44.53749676826641
420,-0.8314695954322815,-0.5555702447891235,0.800000011920929,0.0,0.0,0.39398497343063354,-0.11721665412187576,-0.051089540123939514,0.22164388000965118,-0.16664381325244904,-0.2126828134059906,0.050726085901260376,-0.07083901017904282,-0.15075689554214478,-0.7465438842773438,0.037762854248285294,0.00022134358005132526,-0.021680552512407303,0.016178909689188004,-0.007266022264957428,0.00013585768465418369,-0.004043515771627426,-0.015749840065836906,-0.005088558420538902,0.7810928821563721,-0.11635525524616241,-0.14047424495220184,0.027166128158569336,0.36796069145202637,-1.6846954822540283,-0.6160506010055542,0.43284809589385986,-0.54484623670578,-1.4618030786514282,-1.2947402000427246,0.971135139465332,-0.9503178000450134,-0.8079614043235779,0.10429541766643524,-0.4302259385585785,-0.21604210138320923,-0.19910003244876862,0.07140721380710602,0.12530046701431274,0.41438961029052734,-2.1205787658691406,-0.5327224135398865,0.7913920879364014,-0.10347072035074234,-1.600599765777588,-1.7998300790786743,0.393984969232271,-0.1172166523728811,-0.051089539799395726,0.22164387478250258,-0.16664380918417981,-0.21268280911555434,0.050726086923534974,-0.0708390122698241,-0.15075690242829495,-0.7465438890674253,0.7552570738490479,0.004426871538037114,-0.4336110433656044,0.323578185383044,-0.14532044807733285,0.0027171538263909244,-0.08087031499117686,-0.31499680431744925,-0.10177116592109245,15.62185779549015,-0.049775008112192154,0.017851803451776505,0.031325116753578186,0.10359740257263184,-0.5301446914672852,-0.13318060338497162,0.19784802198410034,-0.025867680087685585,-0.400149941444397,-0.4499575197696686,-11.140970768436407,8.090826734865345,2.949126261156292,-5.692593444543962,0.07246046194889322,1.581892653132482,9.069927048607454,1.844417056595118,-14.658268843202844,-46.568987017172695
430,-0.8819212913513184,-0.4713967442512512,0.800000011920929,0.0,0.0,0.4074857831001282,-0.1185421347618103,-0.05756640061736107,0.223282590508461,-0.16917741298675537,-0.21250006556510925,0.04996570944786072,-0.06663159281015396,-0.15217572450637817,-0.7281543016433716,0.09085991978645325,-0.01324988342821598,-0.04064644128084183,0.002297867788001895,-0.014854760840535164,0.0004940441576763988,-0.005055231507867575,0.022276978939771652,-0.009795858524739742,0.8206430077552795,-0.19910003244876862,0.07140721380710602,0.12530046701431274,0.41438961029052734,-2.1205787658691406,-0.5327224135398865,0.7913920879364014,-0.10347072035074234,-1.600599765777588,-1.7998300790786743,0.8478359580039978,-1.444785237312317,-1.2090259790420532,0.11900320649147034,-0.4414789378643036,-0.22864210605621338,-0.22385339438915253,-0.09567123651504517,0.19177132844924927,0.4530862271785736,-2.301393508911133,-0.5780709385871887,1.1204124689102173,0.3240375518798828,-1.6431056261062622,-1.6977466344833374,0.4074857947500024,-0.11854213592267274,-0.057566400902660575,0.22328259139328233,-0.16917741950928036,-0.21250006848398742,0.049965708058138075,-0.06663159239589686,-0.15217572194737802,-0.7281542778678349,1.8171983221347154,-0.2649976625635548,-0.8129288556778951,0.045957354358814664,-0.2970952113403518,0.009880883011174199,-0.1011046287590587,0.4455395694090823,-0.19591716332445797,16.412859876907966,-0.05596334859728813,-0.02391780912876129,0.04794283211231232,0.1132715567946434,-0.5753483772277832,-0.14451773464679718,0.2801031172275543,0.0810093879699707,-0.41077640652656555,-0.42443665862083435,-14.720577833349957,6.47245259532535,4.548971227333143,-4.538313447022001,0.48511467630255245,1.330004027710282,14.11155843644215,1.6162008990901044,-14.928289584777875,-48.934862011476895
440,-0.9238795042037964,-0.3826834261417389,0.800000011920929,0.0,0.0,0.41121217608451843,-0.11863836646080017,-0.05386248603463173,0.2291920781135559,-0.1420471966266632,-0.2122364640235901,0.05101357027888298,-0.057484403252601624,-0.1552169770002365,-0.706075131893158,0.008965592831373215,0.007147297728806734,0.03578033670783043,-0.08428756147623062,1.3280373811721802,0.0008953326032496989,0.003105410374701023,0.04477497935295105,-0.018590671941637993,0.8268755078315735,-0.22385339438915253,-0.09567123651504517,0.19177132844924927,0.4530862271785736,-2.301393508911133,-0.5780709385871887,1.1204124689102173,0.3240375518798828,-1.6431056261062622,-1.6977466344833374,0.9467813372612,-1.0733245611190796,-0.908115565776825,0.13332012295722961,-0.45188599824905396,-0.2421054095029831,-0.19886095821857452,0.00017313938587903976,0.21888510882854462,0.6128650307655334,-2.222080945968628,-0.6791552305221558,1.3549808263778687,0.3379984200000763,-1.6134135723114014,-1.4308183193206787,0.41121218892427647,-0.11863836778781432,-0.053862485625434234,0.22919207413384607,-0.14204720159119413,-0.21223646235680294,0.05101357011329226,-0.05748440459152344,-0.1552169829966785,-0.7060751076363935,0.1793118586038846,0.14294595279117855,0.7156067266541637,-1.6857512349395973,26.560748762826222,0.017906651767314874,0.062108208429003026,0.8954995642947894,-0.3718134331884464,16.537510304846986,-0.04971523955464363,4.328484646975994e-05,0.054721277207136154,0.15321625769138336,-0.555520236492157,-0.16978880763053894,0.33874520659446716,0.08449960500001907,-0.40335339307785034,-0.3577045798301697,-9.756484145390056,6.69206129968351,0.024855076688916622,2.0182210471202837,-80.09571932337963,0.7952331392233353,17.07757356358348,0.15318149894648236,-13.772744305304972,-49.26416038673473
450,-0.9569403529167175,-0.290284663438797,0.800000011920929,0.0,0.0,0.4116198718547821,-0.11865884810686111,-0.05513088032603264,0.2422761172056198,-0.1604212522506714,-0.21194340288639069,0.05157472938299179,-0.049264926463365555,-0.158181831240654,-0.6829747557640076,0.002615484641864896,0.0005062297568656504,-0.005656943656504154,0.057534974068403244,-0.052662380039691925,0.0010553342290222645,0.002454600064083934,0.043833859264850616,-0.014792759902775288,0.8294020295143127,-0.19886095821857452,0.00017313938587903976,0.21888510882854462,0.6128650307655334,-2.222080945968628,-0.6791552305221558,1.3549808263778687,0.3379984200000763,-1.6134135723114014,-1.4308183193206787,1.161473035812378,-0.9160315990447998,-0.7169340252876282,0.14924010634422302,-0.46051642298698425,-0.25111326575279236,-0.14469030499458313,-0.1509542018175125,0.24095788598060608,0.3492647707462311,-2.60553240776062,-0.8618115782737732,0.9996264576911926,0.47436824440956116,-1.7855945825576782,-1.7305819988250732,0.4116198702393941,-0.11865884798110667,-0.055130881429833564,0.242276122243856,-0.16042125868291182,-0.21194340963399638,0.05157472804888538,-0.04926492552327648,-0.15818183197950328,-0.6829747759773205,0.05230969222108703,0.0101245951978942,-0.113138874440742,1.150699464794789,-1.0532476312827295,0.021106685345593963,0.04909200099356818,0.876677200291271,-0.2958551912904839,16.588040675517348,-0.03617257624864578,-0.03773855045437813,0.06023947149515152,0.08731619268655777,-0.651383101940155,-0.2154528945684433,0.24990661442279816,0.11859206110239029,-0.44639864563941956,-0.4326454997062683,-9.112778006424058,4.82484406601003,2.6468236818219273,-9.650495576676295,2.6687810505909453,-0.13350975472572021,11.75263717945406,0.7271081316395223,-16.40544324572352,-49.51379275028099
460,-0.9807852506637573,-0.19509032368659973,0.800000011920929,0.0,0.0,0.4146934151649475,-0.11808168888092041,-0.05749456211924553,0.25213193893432617,-0.1678377389907837,-0.21169619262218475,0.05149390548467636,-0.03844955936074257,-0.16112805902957916,-0.6555029153823853,0.036895982921123505,0.0021662637591362,-0.021144820377230644,0.03831589221954346,-0.022011123597621918,0.0006082333857193589,-0.00392988370731473,0.056998178362846375,-0.01539892889559269,0.8689114451408386,-0.14469030499458313,-0.1509542018175125,0.24095788598060608,0.3492647707462311,-2.60553240776062,-0.8618115782737732,0.9996264576911926,0.47436824440956116,-1.7855945825576782,-1.7305819988250732,1.2321668863296509,-1.107682228088379,-0.98817378282547,0.1645222157239914,-0.46807363629341125,-0.2620902359485626,-0.16985520720481873,-0.2340896874666214,0.23789376020431519,0.28657394647598267,-2.923232078552246,-0.8931974172592163,0.939091145992279,0.7405340075492859,-1.8244738578796387,-2.001882553100586,0.4146934046977331,-0.11808169085686956,-0.0574945634952664,0.25213192564443276,-0.16783773883258787,-0.2116961946830067,0.051493904486876484,-0.03844955927256803,-0.16112805416367984,-0.6555029333840492,0.7379196471492734,0.0433252746723219,-0.4228963927548034,0.7663178121762145,-0.4402224558690877,0.012164668244984897,-0.07859767629381376,1.139963576457634,-0.30797856970631055,17.3782286955455,-0.04246380180120468,-0.05852242186665535,0.059473440051078796,0.07164348661899567,-0.7308080196380615,-0.22329935431480408,0.23477278649806976,0.18513350188732147,-0.45611846446990967,-0.5004706382751465,-11.356903071426574,3.443580315395887,3.608049249191314,-9.518490997546127,0.7576970868017895,-0.268557197370902,11.232525949553036,1.0517704938248884,-16.775488909254857,-51.97965379152759
470,-0.9951847195625305,-0.0980171412229538,0.800000011920929,0.0,0.0,0.4215516149997711,-0.11911492794752121,-0.05665532499551773,0.2542635500431061,-0.16581518948078156,-0.21184547245502472,0.04832210764288902,-0.032596562057733536,-0.16119949519634247,-0.6361435651779175,0.029715286567807198,-0.021373244002461433,0.01034534815698862,-0.047249503433704376,-0.5988970994949341,-0.0003571795823518187,-0.016993612051010132,0.025469211861491203,0.005724247079342604,-0.11518290638923645,-0.16985520720481873,-0.2340896874666214,0.23789376020431519,0.28657394647598267,-2.923232078552246,-0.8931974172592163,0.939091145992279,0.7405340075492859,-1.8244738578796387,-2.001882553100586,0.8992183804512024,-1.3322902917861938,-0.7364262342453003,0.18119420111179352,-0.4789081811904907,-0.27556103467941284,-0.1536126732826233,-0.506363570690155,0.12406919151544571,0.221835196018219,-3.0676944255828857,-0.8702327013015747,0.6947088837623596,0.7480156421661377,-1.8247079849243164,-2.349663257598877,0.42155160817954945,-0.1191149296327146,-0.056655323235429676,0.2542635474582081,-0.1658151907869779,-0.2118454684915578,0.04832210932475945,-0.03259656389374841,-0.16119948806058704,-0.6361435565016893,0.5943057184865765,-0.4274648734201896,0.20690695421430538,-0.9449900896241887,-11.977941648339485,-0.007143591662493141,-0.33987223518862736,0.5093842360864483,0.11448494592415248,-2.3036581972712584,-0.03840316832065582,-0.12659089267253876,0.031017297878861427,0.05545879900455475,-0.7669236063957214,-0.21755817532539368,0.1736772209405899,0.18700391054153442,-0.4561769962310791,-0.5874158143997192,-10.982012685463836,0.8338368378711192,1.132731559642906,-5.1172196692735685,35.332716529409716,-0.09282336168923805,8.540923402515709,2.8638567804463113,-18.042105328001984,6.959702333915745
480,-1.0,-1.8369701465288538e-16,0.800000011920929,0.0,0.0,0.42276260256767273,-0.11984957754611969,-0.05014321580529213,0.25477495789527893,-0.14836670458316803,-0.21172544360160828,0.048291340470314026,-0.01914503052830696,-0.16243088245391846,-0.6888563632965088,0.0019409458618611097,-0.0024150286335498095,0.010341480374336243,0.04659652337431908,0.013999415561556816,0.0017715699505060911,0.009489375166594982,0.0709136500954628,-0.011377332732081413,-1.1284047365188599,-0.1536126732826233,-0.506363570690155,0.12406919151544571,0.221835196018219,-3.0676944255828857,-0.8702327013015747,0.6947088837623596,0.7480156421661377,-1.8247079849243164,-2.349663257598877,0.8760000467300415,-1.1300069093704224,-0.7342447638511658,0.1953565776348114,-0.4910415709018707,-0.2863626182079315,-0.14541733264923096,-0.5786105394363403,-0.1949951946735382,0.27439168095588684,-2.7153642177581787,-0.6257151961326599,0.4066620469093323,0.587966799736023,-1.7050954103469849,-2.505709409713745,0.4227625997363172,-0.11984957584782811,-0.0501432153358718,0.25477496629524476,-0.14836670947509772,-0.2117254399721228,0.04829134035940122,-0.019145030468087777,-0.1624308798094434,-0.6888563378565516,0.03881891655160315,-0.04830057341971905,0.2068296021694897,0.9319304790668302,0.27998831649069666,0.03543139979245107,0.1897874975795923,1.4182729571436552,-0.22754665268324592,-22.5680940648061,-0.03635433316230774,-0.14465263485908508,-0.04874879866838455,0.06859792023897171,-0.6788410544395447,-0.15642879903316498,0.10166551172733307,0.14699169993400574,-0.4262738525867462,-0.6264273524284363,-9.298795407627308,-1.343281820416261,-0.5926004731587241,-10.242873279451413,-1.370439294436537,0.999638619401803,2.633087789337134,-0.9320842633890956,-15.147938408588434,67.76671117984641
490,-0.9951847195625305,0.0980171412229538,0.800000011920929,0.0,0.0,0.42293402552604675,-0.11977702379226685,-0.04983503744006157,0.26113030314445496,-0.14806827902793884,-0.21151170134544373,0.05014486238360405,-0.008981669321656227,-0.16493476927280426,-0.771896481513977,0.0002242919144919142,0.0010056054452434182,-0.00019497086759656668,0.028260689228773117,0.006677113939076662,0.0015372284688055515,0.009446806274354458,0.054859038442373276,-0.009670165367424488,-1.122104525566101,-0.14541733264923096,-0.5786105394363403,-0.1949951946735382,0.27439168095588684,-2.7153642177581787,-0.6257151961326599,0.4066620469093323,0.587966799736023,-1.7050954103469849,-2.505709409713745,1.2446495294570923,-0.9073601365089417,-0.7474640011787415,0.21294686198234558,-0.499941885471344,-0.2966203987598419,-0.29658418893814087,-0.5572980046272278,-0.05718909949064255,0.20811310410499573,-2.241090774536133,-0.3777902126312256,0.21735133230686188,0.6127310991287231,-1.609318733215332,-2.2870378494262695,0.4229340161496909,-0.1197770274987281,-0.04983503897780871,0.26113030215717425,-0.14806828127897523,-0.21151170051255988,0.050144864114672706,-0.008981669040772664,-0.16493476455466846,-0.7718964989032764,0.004485838169507825,0.02011210982217535,-0.003899417365789886,0.5652137662607486,0.13354227728606663,0.030744569879952773,0.18893613468152717,1.0971807330189627,-0.19340331187839077,-22.44208978943435,-0.07414604723453522,-0.13932450115680695,-0.014297274872660637,0.05202827602624893,-0.5602726936340332,-0.0944475531578064,0.05433783307671547,0.1531827747821808,-0.402329683303833,-0.5717594623565674,-9.955058782193046,-1.233184748951257,0.7224535342003311,-10.059722344019258,-0.8128312442132579,2.2490492374552113,-0.3152302663220158,-0.048253322597819004,-13.6634851893147,67.52640640484975
500,-0.9807852506637573,0.19509032368659973,0.800000011920929,0.0,0.0,0.4229722023010254,-0.11962833255529404,-0.050176359713077545,0.266581654548645,-0.1457330733537674,-0.2113686054944992,0.05119931325316429,0.0012424757005646825,-0.16607104241847992,-0.8524463772773743,9.43803897826001e-05,0.0008048314484767616,-0.0025706994347274303,0.02776673436164856,0.013329284265637398,0.0008313452708534896,0.003317643655464053,0.047060053795576096,-0.0015691332519054413,-1.106086015701294,-0.29658418893814087,-0.5572980046272278,-0.05718909949064255,0.20811310410499573,-2.241090774536133,-0.3777902126312256,0.21735133230686188,0.6127310991287231,-1.609318733215332,-2.2870378494262695,1.306983470916748,-0.878424346446991,-0.8749426007270813,0.23048162460327148,-0.5055928826332092,-0.3079008460044861,-0.39057695865631104,-0.5236741304397583,-0.09993011504411697,0.12279944866895676,-2.071284294128418,-0.26971185207366943,-0.09835143387317657,0.5859876275062561,-1.592039704322815,-2.101163864135742,0.42297221125296175,-0.11962833108241282,-0.0501763595952532,0.2665816498636421,-0.14573307739446245,-0.21136861026795295,0.051199313918535515,0.0012424757281998219,-0.1660710363265468,-0.8524463627499649,0.0018876077587033344,0.016096628780597606,-0.05141398752149832,0.5553346991399719,0.26658568827613516,0.016626905817903527,0.06635287081431786,0.9412010742953149,-0.031382663883338255,-22.121719794066816,-0.09764423966407776,-0.13091853260993958,-0.024982528761029243,0.03069986216723919,-0.5178210735321045,-0.06742796301841736,-0.024587858468294144,0.14649690687656403,-0.39800992608070374,-0.5252909660339355,-10.417991841616898,-0.7257019779933984,0.658118579248974,-11.10127560527603,-1.1718450609660476,2.8289322275370012,-4.746288955652733,0.08148540008133942,-13.822185393599401,66.69231477891647
510,-0.9569403529167175,0.290284663438797,0.800000011920929,0.0,0.0,0.4230031669139862,-0.1194862574338913,-0.05107637867331505,0.2716062664985657,-0.14221909642219543,-0.21133555471897125,0.0515972375869751,0.010622910223901272,-0.16619248688220978,-0.9034567475318909,0.00012544421770144254,0.000764151627663523,-0.00584010174497962,0.02345556765794754,0.020164253190159798,0.00013525752001442015,0.0012108798837289214,0.04432736337184906,5.6164994020946324e-05,0.22071783244609833,-0.39057695865631104,-0.5236741304397583,-0.09993011504411697,0.12279944866895676,-2.071284294128418,-0.26971185207366943,-0.09835143387317657,0.5859876275062561,-1.592039704322815,-2.101163864135742,1.3619085550308228,-0.8330563902854919,-1.007664680480957,0.2498548924922943,-0.5110693573951721,-0.32070422172546387,-0.3850722312927246,-0.36082372069358826,-0.13341733813285828,0.18515655398368835,-2.3160905838012695,-0.26549050211906433,-0.18141813576221466,0.6558875441551208,-1.7184350490570068,-1.9556370973587036,0.4230031575834907,-0.11948625895786776,-0.05107638040319574,0.27160627085288475,-0.14221909186406861,-0.21133554878006341,0.05159723691999572,0.01062291012665959,-0.1661924928034196,-0.9034567246804556,0.0025088843813052884,0.015283032900095304,-0.11680203825884959,0.46911134937215493,0.40328507346904685,0.002705150320076976,0.024217598620570865,0.8865472736017186,0.0011232998863267086,4.414356555836862,-0.09626805782318115,-0.09020593017339706,-0.03335433453321457,0.04628913849592209,-0.5790226459503174,-0.06637262552976608,-0.045354533940553665,0.1639718860387802,-0.4296087622642517,-0.4889092743396759,-10.392950961277354,1.7109706283679555,0.7048470321761722,-10.420019342394971,-1.6466587744933894,2.8911430140457157,-5.8897590474946755,0.40733769743725645,-15.808346067308904,-12.828522217169805
520,-0.9238795042037964,0.3826834261417389,0.800000011920929,0.0,0.0,0.4230971038341522,-0.11928866058588028,-0.05260131508111954,0.276102751493454,-0.13788843154907227,-0.21132925152778625,0.05176715925335884,0.020508483052253723,-0.16678965091705322,-0.8431915640830994,0.00039566669147461653,0.0008992923540063202,-0.009023218415677547,0.021106163039803505,0.02391723543405533,-0.00021450681379064918,0.0005506538436748087,0.051593899726867676,-0.005395946558564901,1.07094407081604,-0.3850722312927246,-0.36082372069358826,-0.13341733813285828,0.18515655398368835,-2.3160905838012695,-0.26549050211906433,-0.18141813576221466,0.6558875441551208,-1.7184350490570068,-1.9556370973587036,1.4309518337249756,-0.8009346127510071,-1.128594160079956,0.2702622413635254,-0.5154019594192505,-0.33448585867881775,-0.36406099796295166,-0.384231835603714,-0.24705854058265686,0.28802865743637085,-2.7924795150756836,-0.3519046902656555,-0.05510510504245758,0.8259959816932678,-1.8163560628890991,-1.841309905052185,0.42309710722051447,-0.11928866304585953,-0.052601315706087615,0.2761027416370627,-0.13788842702095497,-0.21132924599462666,0.05176715768106902,0.02050848340053095,-0.16678964859987502,-0.8431915508359576,0.007913333606222307,0.017985847299494713,-0.18046435928208626,0.4221232686596138,0.47834469392896145,-0.004290136280859789,0.011013077143383846,1.031877990384808,-0.10791893460204195,21.418881174510464,-0.09101524949073792,-0.0960579589009285,-0.061764635145664215,0.07200716435909271,-0.6981198787689209,-0.08797617256641388,-0.013776276260614395,0.20649899542331696,-0.4540890157222748,-0.46032747626304626,-10.305987135043715,1.3398847067973778,0.3581266890547268,-9.430192897097642,-1.9952655335348504,2.479931877406835,-3.9656452679311562,0.6241762693012958,-16.91420522353786,-63.87377944895848
530,-0.8819212913513184,0.4713967442512512,0.800000011920929,0.0,0.0,0.4239256680011749,-0.11983303725719452,-0.050205446779727936,0.27748510241508484,-0.13476938009262085,-0.2118217796087265,0.047839824110269547,0.02762518636882305,-0.16936513781547546,-0.8082963228225708,0.006862507201731205,-0.039150409400463104,-0.029469922184944153,0.04931944981217384,-0.12420586496591568,-0.0019572474993765354,-0.01986796408891678,0.05675457417964935,-0.013113703578710556,0.1564735621213913,-0.36406099796295166,-0.384231835603714,-0.24705854058265686,0.28802865743637085,-2.7924795150756836,-0.3519046902656555,-0.05510510504245758,0.8259959816932678,-1.8163560628890991,-1.841309905052185,1.207370638847351,-1.1896603107452393,-0.997399628162384,0.29068267345428467,-0.5246755480766296,-0.3507114350795746,-0.3003506660461426,-0.3196450173854828,-0.10768469423055649,0.22873646020889282,-3.023707866668701,-0.4383068084716797,-0.13657574355602264,0.7848486304283142,-1.8284343481063843,-1.964882254600525,0.4239256669889448,-0.1198330385453335,-0.050205444990419686,0.2774851071538017,-0.13476938018076187,-0.21182178400382035,0.047839823733195,0.027625186869643003,-0.16936514175480988,-0.8082963338794144,0.13725014359550222,-0.7830081719964712,-0.5893984486310293,0.9863890141337275,-2.4841173610888863,-0.03914494923092777,-0.39735928427178263,1.135091463594097,-0.26227407376155265,3.129471347825359,-0.07508766651153564,-0.0799112543463707,-0.026921173557639122,0.057184115052223206,-0.7559269666671753,-0.10957670211791992,-0.03414393588900566,0.19621215760707855,-0.45710858702659607,-0.4912205636501312,-10.392017100796116,4.7443315679271825,2.233880774548699,-11.771206726464323,6.831194496780245,2.162336485410792,-3.7269477245166924,-0.03353497603357969,-16.47778449502251,-9.071338273246793
540,-0.8314695954322815,0.5555702447891235,0.800000011920929,0.0,0.0,0.42663371562957764,-0.12014227360486984,-0.04053536430001259,0.2699126601219177,-0.129732146859169,-0.2120455652475357,0.045489534735679626,0.0371004119515419,-0.17190968990325928,-0.7472699880599976,0.035988468676805496,-0.02353592775762081,-0.02195352129638195,-0.03575765714049339,-0.9715015888214111,-0.000917987956199795,-0.006825561169534922,0.09554340690374374,-0.010355952195823193,1.1301037073135376,-0.3003506660461426,-0.3196450173854828,-0.10768469423055649,0.22873646020889282,-3.023707866668701,-0.4383068084716797,-0.13657574355602264,0.7848486304283142,-1.8284343481063843,-1.964882254600525,1.3302795886993408,-1.4042868614196777,-0.9573021531105042,0.3110297918319702,-0.5338291525840759,-0.36502331495285034,-0.23587138950824738,-0.39568018913269043,-0.08621519058942795,0.08620651811361313,-3.109797477722168,-0.45366913080215454,-0.5177204608917236,0.616960346698761,-1.7693206071853638,-2.4426093101501465,0.42663370397051453,-0.12014227428162177,-0.04053536547041843,0.2699126454537159,-0.1297321446246884,-0.212045559472877,0.04548953505575239,0.03710041136552622,-0.17190968425977812,-0.7472700138191146,0.7197693615861247,-0.4707185472818385,-0.4390704102744367,-0.7151531486283452,-19.43003144671293,-0.01835975878615865,-0.13651122205999056,1.9108681158839667,-0.20711903699917047,22.60207530741985,-0.058967847377061844,-0.09892004728317261,-0.021553797647356987,0.021551629528403282,-0.777449369430542,-0.11341728270053864,-0.1294301152229309,0.15424008667469025,-0.44233015179634094,-0.6106523275375366,-11.8713391117099,2.6854892617524655,1.696842587284539,-7.788981191127469,57.64237711533294,2.0276448118052435,-10.085645350541027,-3.38981084146862,-15.603870941196256,-67.66960823597796
550,-0.7730104327201843,0.6343932747840881,0.800000011920929,0.0,0.0,0.4295620322227478,-0.12122752517461777,-0.027522368356585503,0.25956782698631287,-0.10329532623291016,-0.2124333381652832,0.04333256930112839,0.045083411037921906,-0.17361675202846527,-0.7202518582344055,0.006145587656646967,-0.0021067506168037653,0.03634098544716835,-0.01023608073592186,-0.7117984890937805,-0.0013275875244289637,-0.0003478847211226821,0.05321379378437996,-0.011301245540380478,0.3103901147842407,-0.23587138950824738,-0.39568018913269043,-0.08621519058942795,0.08620651811361313,-3.109797477722168,-0.45366913080215454,-0.5177204608917236,0.616960346698761,-1.7693206071853638,-2.4426093101501465,1.3900425434112549,-1.489592432975769,-1.010329246520996,0.33122655749320984,-0.5446557402610779,-0.3805917799472809,-0.3626675009727478,-0.699971079826355,0.11515924334526062,-0.0448237881064415,-2.7332828044891357,-0.3957923650741577,-0.5249426960945129,0.5001703500747681,-1.4202232360839844,-2.4855761528015137,0.4295620378025634,-0.12122752352928079,-0.027522369072111145,0.2595678256273302,-0.1032953279839237,-0.21243333904985132,0.04333256833037733,0.04508341271592767,-0.17361674599333832,-0.7202518662105178,0.12291175238335084,-0.04213501187467095,0.7268197237157459,-0.20472161080562357,-14.235970241472952,-0.026551749609949757,-0.00695769460565919,1.06427588662797,-0.2260249068310336,6.2078023178299375,-0.09066687524318695,-0.17499276995658875,0.028789810836315155,-0.011205947026610374,-0.6833207011222839,-0.09894809126853943,-0.13123567402362823,0.12504258751869202,-0.3550558090209961,-0.6213940382003784,-10.773313518065061,-3.0995097500144646,-1.0542155729787117,-10.216786073740753,42.12788535128049,2.349360204456087,-10.453221457423355,-1.593644163828623,-10.208269061166366,-18.524549125479673
560,-0.7071067690849304,0.7071067690849304,0.800000011920929,0.0,0.0,0.43067508935928345,-0.12192637473344803,-0.016075320541858673,0.2435384839773178,-0.0933254212141037,-0.21252624690532684,0.043374788016080856,0.05032587796449661,-0.17264479398727417,-0.8004632592201233,0.01526633370667696,-0.03361312299966812,-0.01064531784504652,-0.059963472187519073,-0.8714998960494995,-0.001356906839646399,-0.005157981067895889,0.027128955349326134,0.011203715577721596,0.3130413293838501,-0.3626675009727478,-0.699971079826355,0.11515924334526062,-0.0448237881064415,-2.7332828044891357,-0.3957923650741577,-0.5249426960945129,0.5001703500747681,-1.4202232360839844,-2.4855761528015137,1.51963210105896,-1.353845238685608,-1.1940598487854004,0.355447381734848,-0.5531176924705505,-0.3989296555519104,-0.43105918169021606,-0.7530782222747803,0.25021854043006897,-0.1117180809378624,-2.9577088356018066,-0.28007563948631287,-0.6367717385292053,0.2511141002178192,-1.2390412092208862,-2.722289562225342,0.43067509599592174,-0.12192637758486864,-0.016075321274414377,0.24353848737936248,-0.0933254204128846,-0.2125262414766149,0.04337478812816667,0.050325878304148156,-0.17264479089581095,-0.8004632842833828,0.30532666638549794,-0.672262490246874,-0.2129063590483944,-1.1992694169055231,-17.429997507736623,-0.027138135844264902,-0.10315962085217138,0.5425790942474111,0.22407431283901658,6.260826740841832,-0.10776479542255402,-0.18826955556869507,0.06255463510751724,-0.0279295202344656,-0.7394272089004517,-0.07001890987157822,-0.15919293463230133,0.0627785250544548,-0.30976030230522156,-0.6805723905563354,-11.68477782752601,-1.9638032082889638,2.2113182047838156,-7.260912053836552,51.6438907347223,2.9315610396335283,-11.844584503071566,-1.3786843477361004,-8.899153623081688,-18.66258932879845
